( Generated by pstoedit 3.75 from /Users/mccoy/Desktop/joined-figureOnly.pdf at 20200209004432^@ )
G21            ; set units to millimeters
G90            ; set absolute positioning
M3 S165        ; pen up
G0 F2000

M3 S165
G0 F2000
G0 X195.1 Y2.3
M3 S148
G0 F2000
G0 X194.9 Y2.3
G0 X194.5 Y2.4
G0 X193.9 Y2.3
G0 X193.4 Y2.2
G0 X193.0 Y2.1
G0 X192.9 Y2.1
G0 X192.4 Y2.0
G0 X191.0 Y1.8
G0 X189.2 Y1.9
G0 X187.6 Y2.2
G0 X186.3 Y2.7
G0 X186.0 Y2.9
G0 X185.5 Y3.2
G0 X183.9 Y3.8
G0 X181.7 Y4.4
G0 X179.5 Y5.0
G0 X177.9 Y5.7
G0 X177.4 Y5.9
G0 X177.3 Y6.0
G0 X176.7 Y6.1
G0 X176.1 Y5.8
G0 X175.5 Y5.4
G0 X175.1 Y5.1
G0 X174.9 Y5.0
G0 X174.8 Y5.0
G0 X174.2 Y4.7
G0 X173.6 Y4.5
G0 X173.4 Y4.5
G0 X173.3 Y4.5
G0 X172.6 Y4.7
G0 X172.1 Y5.0
G0 X172.0 Y5.0
G0 X171.9 Y5.2
G0 X171.5 Y5.6
G0 X170.9 Y6.1
G0 X170.2 Y6.6
G0 X169.7 Y7.0
G0 X169.5 Y7.1
G0 X169.4 Y7.4
G0 X168.6 Y8.7
G0 X167.4 Y10.0
G0 X167.1 Y10.2
G0 X167.1 Y10.3
G0 X166.8 Y11.0
G0 X166.8 Y11.1
G0 X166.8 Y11.3
G0 X167.0 Y11.8
G0 X167.5 Y12.4
G0 X168.1 Y12.9
G0 X168.6 Y13.3
G0 X168.7 Y13.4
G0 X168.7 Y13.5
G0 X168.5 Y13.7
G0 X168.3 Y13.9
G0 X168.3 Y13.9
G0 X168.1 Y14.0
G0 X167.4 Y14.3
G0 X166.6 Y14.8
G0 X165.7 Y15.2
G0 X164.9 Y15.7
G0 X164.2 Y16.3
G0 X163.7 Y16.9
G0 X163.2 Y17.6
G0 X163.0 Y18.3
G0 X160.8 Y20.0

M3 S165
G0 F2000
G0 X267.9 Y2.9
M3 S148
G0 F2000
G0 X268.0 Y3.0
G0 X268.7 Y3.4
G0 X269.6 Y3.6
G0 X270.6 Y3.6
G0 X271.5 Y3.5
G0 X272.5 Y3.3
G0 X273.4 Y3.2
G0 X274.4 Y3.2
G0 X275.1 Y3.2
G0 X275.3 Y3.3
G0 X275.3 Y3.3
G0 X275.8 Y3.4
G0 X275.9 Y3.4
G0 X276.0 Y3.5
G0 X276.6 Y3.6
G0 X277.4 Y3.7
G0 X278.3 Y3.7
G0 X278.9 Y3.8
G0 X288.9 Y5.1

M3 S165
G0 F2000
G0 X259.3 Y3.2
M3 S148
G0 F2000
G0 X259.5 Y3.4
G0 X260.4 Y3.8
G0 X261.5 Y3.9
G0 X261.7 Y3.9
G0 X262.0 Y3.9
G0 X262.8 Y4.0
G0 X263.8 Y4.1
G0 X264.8 Y4.4
G0 X265.4 Y4.7
G0 X265.6 Y4.9
G0 X265.7 Y4.9
G0 X265.9 Y5.0
G0 X266.2 Y5.1
G0 X266.3 Y5.1
G0 X267.1 Y5.2
G0 X269.6 Y5.5
G0 X272.8 Y6.2
G0 X275.9 Y7.1
G0 X278.2 Y7.8
G0 X278.9 Y8.1
G0 X279.1 Y8.1
G0 X279.7 Y8.2
G0 X280.3 Y8.2
G0 X280.4 Y8.2
G0 X280.5 Y8.2
G0 X280.8 Y8.1
G0 X281.2 Y7.9
G0 X281.3 Y7.9
G0 X281.2 Y7.7
G0 X280.7 Y7.1
G0 X279.9 Y6.5
G0 X278.9 Y6.0
G0 X277.9 Y5.6
G0 X276.9 Y5.3
G0 X275.8 Y4.9
G0 X274.9 Y4.4
G0 X274.3 Y4.0
G0 X274.1 Y3.8
G0 X274.1 Y3.8
G0 X274.3 Y3.6
G0 X274.6 Y3.4
G0 X274.9 Y3.4
G0 X275.2 Y3.3
G0 X268.3 Y2.2

M3 S165
G0 F2000
G0 X223.1 Y3.3
M3 S148
G0 F2000
G0 X223.0 Y3.4
G0 X222.8 Y3.7
G0 X222.4 Y4.1
G0 X221.9 Y4.3
G0 X221.4 Y4.5
G0 X220.8 Y4.8
G0 X220.3 Y5.0
G0 X219.8 Y5.3
G0 X219.5 Y5.5
G0 X219.4 Y5.6
G0 X220.1 Y6.0
G0 X222.2 Y6.8
G0 X225.1 Y7.5
G0 X228.2 Y8.1
G0 X230.5 Y8.4
G0 X233.3 Y5.2

M3 S165
G0 F2000
G0 X171.0 Y4.0
M3 S148
G0 F2000
G0 X171.1 Y4.1
G0 X171.5 Y4.5
G0 X171.9 Y4.8
G0 X172.0 Y4.9
G0 X172.1 Y4.9
G0 X172.9 Y4.9
G0 X173.0 Y4.9
G0 X173.1 Y4.9
G0 X173.5 Y4.8
G0 X174.0 Y4.8
G0 X174.5 Y4.7
G0 X174.8 Y4.6
G0 X182.7 Y2.4

M3 S165
G0 F2000
G0 X174.9 Y4.5
M3 S148
G0 F2000
G0 X174.7 Y4.5
G0 X172.8 Y4.5
G0 X172.7 Y4.4
G0 X172.6 Y4.5
G0 X172.5 Y4.8
G0 X172.6 Y5.0
G0 X172.8 Y5.1
G0 X173.2 Y5.1
G0 X174.9 Y4.5

M3 S165
G0 F2000
G0 X231.0 Y5.0
M3 S148
G0 F2000
G0 X231.0 Y5.1
G0 X230.7 Y5.5
G0 X230.1 Y5.9
G0 X229.4 Y6.2
G0 X228.6 Y6.4
G0 X227.7 Y6.4
G0 X226.8 Y6.4
G0 X226.0 Y6.2
G0 X225.4 Y5.9
G0 X225.0 Y4.3

M3 S165
G0 F2000
G0 X171.1 Y5.1
M3 S148
G0 F2000
G0 X171.2 Y5.1
G0 X172.5 Y5.6
G0 X172.6 Y5.6
G0 X172.7 Y5.6
G0 X173.3 Y5.2
G0 X173.4 Y5.1
G0 X173.3 Y5.1
G0 X172.7 Y4.5
G0 X172.7 Y4.4
G0 X172.7 Y4.5
G0 X172.6 Y4.5
G0 X172.4 Y4.3
G0 X172.2 Y4.0
G0 X172.1 Y3.7
G0 X171.9 Y3.5
G0 X171.8 Y3.5
G0 X171.1 Y5.1

M3 S165
G0 F2000
G0 X191.3 Y5.6
M3 S148
G0 F2000
G0 X191.2 Y5.6
G0 X190.8 Y5.8
G0 X190.8 Y6.0
G0 X190.8 Y6.1
G0 X190.8 Y6.2
G0 X191.0 Y6.4
G0 X191.3 Y6.7
G0 X191.4 Y6.7
G0 X191.5 Y6.7
G0 X191.7 Y6.7
G0 X191.9 Y6.6
G0 X191.3 Y5.6

M3 S165
G0 F2000
G0 X288.7 Y5.9
M3 S148
G0 F2000
G0 X288.9 Y6.0
G0 X289.6 Y6.3
G0 X290.6 Y6.4
G0 X291.5 Y6.5
G0 X292.3 Y6.4
G0 X292.5 Y6.4
G0 X293.1 Y6.3
G0 X294.7 Y6.2
G0 X296.8 Y6.1
G0 X298.9 Y6.2
G0 X300.9 Y6.4
G0 X303.0 Y6.7
G0 X305.0 Y7.0
G0 X307.0 Y7.4
G0 X308.5 Y7.7
G0 X309.0 Y7.8
G0 X310.2 Y8.1
G0 X316.3 Y9.6
G0 X322.2 Y11.2
G0 X323.4 Y11.5
G0 X324.2 Y11.7
G0 X326.8 Y12.3
G0 X330.2 Y12.9
G0 X333.7 Y13.2
G0 X336.4 Y13.2
G0 X337.2 Y13.2
G0 X338.2 Y13.2
G0 X341.0 Y13.2
G0 X344.7 Y13.6
G0 X348.3 Y14.1
G0 X351.0 Y14.6
G0 X351.9 Y14.8
G0 X352.5 Y14.9
G0 X354.4 Y15.2
G0 X356.8 Y15.6
G0 X359.3 Y15.9
G0 X361.8 Y16.2
G0 X364.2 Y16.3
G0 X366.8 Y16.3
G0 X369.3 Y16.1
G0 X371.3 Y15.9
G0 X387.1 Y14.8

M3 S165
G0 F2000
G0 X169.3 Y7.6
M3 S148
G0 F2000
G0 X169.4 Y7.5
G0 X170.4 Y7.5
G0 X170.4 Y7.4
G0 X170.7 Y7.4
G0 X171.2 Y7.1
G0 X171.8 Y6.7
G0 X172.3 Y6.2
G0 X172.6 Y5.8
G0 X171.1 Y5.1

M3 S165
G0 F2000
G0 X168.1 Y8.7
M3 S148
G0 F2000
G0 X168.3 Y8.8
G0 X168.6 Y9.2
G0 X168.7 Y9.7
G0 X168.7 Y10.2
G0 X168.7 Y10.5
G0 X168.7 Y10.7
G0 X169.0 Y10.5
G0 X169.7 Y10.0
G0 X170.2 Y7.2

M3 S165
G0 F2000
G0 X329.2 Y12.9
M3 S148
G0 F2000
G0 X329.9 Y13.1
G0 X331.9 Y13.4
G0 X334.6 Y13.5
G0 X337.4 Y13.5
G0 X339.5 Y13.5
G0 X340.1 Y13.5
G0 X339.8 Y13.3
G0 X338.6 Y13.0
G0 X329.2 Y12.9

M3 S165
G0 F2000
G0 X162.9 Y13.8
M3 S148
G0 F2000
G0 X163.2 Y13.9
G0 X164.2 Y14.1
G0 X165.5 Y14.1
G0 X166.8 Y13.9
G0 X167.7 Y13.6
G0 X167.9 Y13.4
G0 X168.1 Y13.3
G0 X168.4 Y12.8
G0 X168.4 Y12.0
G0 X168.4 Y11.3
G0 X168.6 Y10.8
G0 X168.7 Y10.6
G0 X168.7 Y10.7
G0 X168.8 Y10.4
G0 X169.1 Y9.8
G0 X169.2 Y9.1
G0 X166.2 Y8.2

M3 S165
G0 F2000
G0 X329.4 Y14.6
M3 S148
G0 F2000
G0 X329.7 Y14.7
G0 X330.5 Y15.1
G0 X331.6 Y15.5
G0 X332.8 Y15.7
G0 X333.9 Y15.8
G0 X335.1 Y15.7
G0 X336.3 Y15.6
G0 X337.4 Y15.4
G0 X338.3 Y15.2
G0 X338.6 Y15.1
G0 X338.1 Y15.1
G0 X335.8 Y15.1
G0 X333.5 Y14.7
G0 X329.4 Y14.6

M3 S165
G0 F2000
G0 X272.1 Y23.0
M3 S148
G0 F2000
G0 X272.2 Y22.9
G0 X272.7 Y22.6
G0 X273.4 Y22.2
G0 X273.9 Y21.8
G0 X274.4 Y21.4
G0 X274.7 Y20.9
G0 X274.9 Y20.4
G0 X274.8 Y19.8
G0 X274.5 Y19.2
G0 X272.1 Y23.0

M3 S165
G0 F2000
G0 X269.8 Y28.6
M3 S148
G0 F2000
G0 X270.0 Y28.2
G0 X270.5 Y27.3
G0 X271.3 Y26.1
G0 X271.8 Y24.9
G0 X272.1 Y23.9
G0 X272.1 Y23.5
G0 X271.8 Y23.6
G0 X271.1 Y24.0
G0 X270.4 Y24.5
G0 X269.8 Y28.6

M3 S165
G0 F2000
G0 X267.5 Y30.8
M3 S148
G0 F2000
G0 X267.7 Y30.7
G0 X268.3 Y30.4
G0 X269.0 Y29.9
G0 X269.5 Y29.3
G0 X269.8 Y28.8
G0 X269.8 Y28.6
G0 X269.6 Y28.6
G0 X269.2 Y28.7
G0 X268.7 Y28.9
G0 X267.5 Y30.8

M3 S165
G0 F2000
G0 X471.5 Y30.9
M3 S148
G0 F2000
G0 X471.4 Y30.9
G0 X471.1 Y31.1
G0 X471.1 Y31.5
G0 X471.3 Y32.0
G0 X471.6 Y32.2
G0 X471.7 Y32.3
G0 X471.9 Y32.4
G0 X472.8 Y32.7
G0 X473.7 Y32.9
G0 X473.8 Y32.9
G0 X474.2 Y33.0
G0 X475.3 Y33.2
G0 X476.7 Y33.6
G0 X478.1 Y34.1
G0 X479.1 Y34.5
G0 X479.4 Y34.7
G0 X479.4 Y34.7
G0 X479.4 Y34.1
G0 X478.1 Y31.8

M3 S165
G0 F2000
G0 X468.8 Y33.0
M3 S148
G0 F2000
G0 X468.8 Y33.0
G0 X468.8 Y33.4
G0 X468.8 Y33.5
G0 X468.8 Y33.5
G0 X469.0 Y33.8
G0 X469.1 Y33.8
G0 X469.1 Y33.8
G0 X469.9 Y33.9
G0 X468.8 Y33.0

M3 S165
G0 F2000
G0 X478.9 Y34.0
M3 S148
G0 F2000
G0 X479.0 Y34.1
G0 X479.3 Y34.4
G0 X479.7 Y34.7
G0 X480.0 Y35.1
G0 X480.2 Y35.5
G0 X480.2 Y35.6
G0 X480.2 Y35.7
G0 X480.6 Y36.6
G0 X483.1 Y38.2

M3 S165
G0 F2000
G0 X471.6 Y34.2
M3 S148
G0 F2000
G0 X471.5 Y34.2
G0 X470.9 Y34.0
G0 X470.9 Y33.9
G0 X470.8 Y33.9
G0 X470.4 Y34.0
G0 X470.1 Y34.3
G0 X470.1 Y34.4
G0 X470.1 Y34.5
G0 X470.3 Y34.8
G0 X470.7 Y35.0
G0 X471.1 Y35.0
G0 X471.6 Y34.2

M3 S165
G0 F2000
G0 X472.9 Y34.8
M3 S148
G0 F2000
G0 X472.9 Y34.8
G0 X472.5 Y34.6
G0 X472.4 Y34.6
G0 X472.4 Y34.5
G0 X472.0 Y34.5
G0 X471.9 Y34.5
G0 X471.9 Y34.5
G0 X471.6 Y34.8
G0 X471.5 Y35.0
G0 X471.5 Y35.1
G0 X471.6 Y35.2
G0 X471.9 Y35.4
G0 X472.4 Y35.5
G0 X472.9 Y34.8

M3 S165
G0 F2000
G0 X472.9 Y34.8
M3 S148
G0 F2000
G0 X472.9 Y34.8
G0 X473.1 Y35.3
G0 X473.1 Y35.3
G0 X473.1 Y35.3
G0 X473.4 Y35.5
G0 X473.4 Y35.5
G0 X473.5 Y35.5
G0 X473.8 Y35.5
G0 X472.9 Y34.8

M3 S165
G0 F2000
G0 X474.1 Y35.8
M3 S148
G0 F2000
G0 X474.1 Y35.8
G0 X474.7 Y35.7
G0 X474.8 Y35.7
G0 X474.7 Y35.6
G0 X474.1 Y35.3
G0 X474.1 Y35.3
G0 X474.1 Y35.3
G0 X474.0 Y35.3
G0 X474.0 Y35.3
G0 X474.1 Y35.8

M3 S165
G0 F2000
G0 X475.6 Y36.4
M3 S148
G0 F2000
G0 X475.5 Y36.4
G0 X474.8 Y35.7
G0 X474.8 Y35.7
G0 X474.7 Y35.7
G0 X474.3 Y35.7
G0 X474.0 Y35.9
G0 X473.9 Y35.9
G0 X473.9 Y36.0
G0 X474.0 Y36.4
G0 X475.6 Y36.4

M3 S165
G0 F2000
G0 X476.4 Y36.9
M3 S148
G0 F2000
G0 X476.4 Y36.9
G0 X476.3 Y36.5
G0 X476.2 Y36.4
G0 X476.2 Y36.4
G0 X475.6 Y36.4
G0 X475.6 Y36.4
G0 X476.4 Y36.9

M3 S165
G0 F2000
G0 X483.2 Y37.5
M3 S148
G0 F2000
G0 X483.1 Y37.7
G0 X482.7 Y38.6
G0 X482.6 Y39.8
G0 X483.1 Y40.8
G0 X483.8 Y41.5
G0 X484.1 Y41.7
G0 X484.3 Y41.8
G0 X484.8 Y42.1
G0 X485.4 Y42.5
G0 X490.5 Y42.9

M3 S165
G0 F2000
G0 X481.8 Y39.7
M3 S148
G0 F2000
G0 X481.9 Y39.6
G0 X482.1 Y39.2
G0 X482.2 Y38.6
G0 X481.9 Y38.2
G0 X481.6 Y37.8
G0 X481.4 Y37.7
G0 X481.2 Y37.5
G0 X478.9 Y36.0
G0 X478.7 Y35.8
G0 X478.5 Y35.8
G0 X478.0 Y35.8
G0 X477.4 Y35.9
G0 X476.8 Y36.1
G0 X476.4 Y36.3
G0 X476.2 Y36.4
G0 X476.2 Y36.5
G0 X475.9 Y36.7
G0 X475.8 Y36.7
G0 X475.8 Y36.8
G0 X475.6 Y37.5
G0 X475.6 Y37.6
G0 X475.6 Y37.7
G0 X476.0 Y38.2
G0 X476.5 Y38.6
G0 X476.6 Y38.6
G0 X476.8 Y38.7
G0 X477.2 Y38.9
G0 X477.8 Y39.2
G0 X481.8 Y39.7

M3 S165
G0 F2000
G0 X489.3 Y40.3
M3 S148
G0 F2000
G0 X489.3 Y40.3
G0 X489.3 Y39.8
G0 X489.2 Y39.8
G0 X489.2 Y39.7
G0 X489.2 Y39.6
G0 X489.1 Y39.4
G0 X488.9 Y39.4
G0 X488.7 Y39.5
G0 X488.6 Y39.5
G0 X488.6 Y39.5
G0 X489.3 Y40.3

M3 S165
G0 F2000
G0 X406.7 Y41.4
M3 S148
G0 F2000
G0 X406.6 Y41.4
G0 X406.2 Y41.6
G0 X405.9 Y41.9
G0 X405.7 Y42.2
G0 X405.7 Y42.5
G0 X405.7 Y42.6
G0 X405.8 Y42.8
G0 X406.0 Y43.2
G0 X406.6 Y43.7
G0 X407.4 Y43.9
G0 X408.0 Y44.0
G0 X408.1 Y43.9
G0 X408.3 Y43.9
G0 X408.6 Y43.8
G0 X408.9 Y43.5
G0 X409.0 Y43.2
G0 X409.0 Y43.0
G0 X406.7 Y41.4

M3 S165
G0 F2000
G0 X488.5 Y42.0
M3 S148
G0 F2000
G0 X488.3 Y42.0
G0 X487.8 Y42.0
G0 X487.0 Y41.9
G0 X486.3 Y41.7
G0 X485.6 Y41.4
G0 X485.0 Y41.0
G0 X484.5 Y40.6
G0 X484.1 Y40.0
G0 X484.0 Y39.5
G0 X483.9 Y39.3
G0 X483.9 Y39.2
G0 X483.6 Y38.4
G0 X483.3 Y37.6
G0 X483.2 Y37.5
G0 X483.1 Y37.4
G0 X482.6 Y37.1
G0 X482.2 Y36.8
G0 X481.9 Y36.3
G0 X481.7 Y35.9
G0 X481.7 Y35.8
G0 X481.6 Y35.8
G0 X481.1 Y35.3
G0 X481.0 Y35.3
G0 X479.4 Y34.0
G0 X479.3 Y34.1
G0 X479.2 Y34.4
G0 X479.3 Y34.7
G0 X479.4 Y34.7
G0 X479.4 Y34.8
G0 X479.5 Y35.2
G0 X479.5 Y35.2
G0 X479.4 Y35.3
G0 X479.4 Y35.5
G0 X479.1 Y35.6
G0 X478.9 Y35.7
G0 X478.7 Y35.8
G0 X478.6 Y35.8
G0 X478.7 Y35.8
G0 X478.7 Y36.0
G0 X478.7 Y36.4
G0 X479.0 Y37.0
G0 X479.4 Y37.5
G0 X479.9 Y38.0
G0 X480.3 Y38.6
G0 X480.6 Y39.1
G0 X480.6 Y39.7
G0 X480.4 Y40.2
G0 X480.3 Y40.4
G0 X480.6 Y40.6
G0 X481.6 Y41.4
G0 X482.8 Y42.5
G0 X489.1 Y49.3

M3 S165
G0 F2000
G0 X147.7 Y43.0
M3 S148
G0 F2000
G0 X147.9 Y42.6
G0 X148.6 Y41.4
G0 X149.6 Y39.9
G0 X150.8 Y38.5
G0 X152.0 Y37.6
G0 X152.5 Y37.4
G0 X152.6 Y37.3
G0 X153.2 Y36.7
G0 X153.5 Y36.1
G0 X153.5 Y35.9
G0 X153.4 Y35.5
G0 X153.6 Y34.2
G0 X154.0 Y32.6
G0 X154.7 Y31.1
G0 X155.6 Y29.6
G0 X156.5 Y28.1
G0 X157.5 Y26.7
G0 X158.4 Y25.2
G0 X159.1 Y24.1
G0 X159.2 Y23.7
G0 X159.3 Y23.5
G0 X159.6 Y23.0
G0 X160.2 Y22.3
G0 X161.0 Y21.8
G0 X161.6 Y21.4
G0 X161.8 Y21.3
G0 X162.1 Y21.2
G0 X163.0 Y20.7
G0 X164.0 Y19.9
G0 X164.9 Y19.1
G0 X165.7 Y18.2
G0 X166.4 Y17.4
G0 X167.2 Y16.5
G0 X168.2 Y15.7
G0 X168.9 Y15.2
G0 X169.2 Y15.0
G0 X169.3 Y14.9
G0 X169.6 Y14.7
G0 X168.5 Y12.7

M3 S165
G0 F2000
G0 X493.4 Y47.2
M3 S148
G0 F2000
G0 X493.4 Y47.1
G0 X493.0 Y46.8
G0 X492.5 Y46.5
G0 X492.1 Y46.3
G0 X491.7 Y46.1
G0 X491.6 Y46.1
G0 X491.4 Y46.0
G0 X491.1 Y45.9
G0 X490.5 Y45.8
G0 X490.1 Y45.9
G0 X489.8 Y46.2
G0 X489.7 Y46.3
G0 X489.7 Y46.4
G0 X489.7 Y46.7
G0 X490.0 Y47.0
G0 X490.5 Y47.3
G0 X490.9 Y47.4
G0 X493.4 Y47.2

M3 S165
G0 F2000
G0 X492.9 Y48.2
M3 S148
G0 F2000
G0 X492.7 Y48.2
G0 X492.0 Y48.2
G0 X491.0 Y48.2
G0 X490.1 Y48.4
G0 X489.5 Y48.6
G0 X489.3 Y48.7
G0 X489.4 Y48.9
G0 X489.8 Y49.3
G0 X490.4 Y49.9
G0 X491.1 Y50.5
G0 X491.7 Y51.0
G0 X492.2 Y51.6
G0 X492.7 Y52.2
G0 X493.1 Y52.9
G0 X493.3 Y53.4
G0 X493.4 Y53.6
G0 X493.3 Y53.6
G0 X493.2 Y53.9
G0 X493.2 Y54.0
G0 X493.1 Y54.1
G0 X492.8 Y55.0
G0 X492.8 Y55.1
G0 X492.8 Y55.2
G0 X492.9 Y55.9
G0 X492.9 Y55.9
G0 X493.1 Y56.2
G0 X493.9 Y57.0
G0 X494.7 Y58.1
G0 X495.7 Y59.2
G0 X496.6 Y59.9
G0 X497.0 Y60.0
G0 X497.2 Y60.1
G0 X497.8 Y60.1
G0 X498.4 Y59.9
G0 X498.5 Y59.9
G0 X498.6 Y59.8
G0 X499.4 Y59.6
G0 X499.5 Y59.6
G0 X502.3 Y59.3

M3 S165
G0 F2000
G0 X145.4 Y49.3
M3 S148
G0 F2000
G0 X145.5 Y49.7
G0 X145.6 Y50.8
G0 X145.5 Y52.4
G0 X145.4 Y53.9
G0 X145.2 Y55.1
G0 X145.2 Y55.5
G0 X145.2 Y55.7
G0 X145.2 Y56.4
G0 X145.1 Y57.4
G0 X145.2 Y58.3
G0 X145.5 Y59.0
G0 X145.6 Y59.2
G0 X145.8 Y59.7
G0 X146.4 Y61.1
G0 X146.9 Y63.1
G0 X147.3 Y65.1
G0 X147.6 Y67.1
G0 X147.8 Y69.1
G0 X148.1 Y71.1
G0 X148.5 Y73.1
G0 X148.9 Y74.6
G0 X149.0 Y75.1
G0 X148.8 Y75.4
G0 X148.2 Y76.5
G0 X147.8 Y77.9
G0 X147.7 Y79.4
G0 X147.7 Y80.8
G0 X147.8 Y82.3
G0 X147.9 Y83.7
G0 X147.8 Y85.2
G0 X147.6 Y86.3
G0 X147.9 Y93.1

M3 S165
G0 F2000
G0 X426.2 Y52.4
M3 S148
G0 F2000
G0 X426.2 Y52.3
G0 X425.9 Y52.0
G0 X425.5 Y51.9
G0 X425.4 Y51.9
G0 X425.3 Y51.9
G0 X425.1 Y52.0
G0 X424.8 Y52.2
G0 X424.7 Y52.4
G0 X424.6 Y52.6
G0 X424.7 Y52.7
G0 X424.7 Y52.8
G0 X426.2 Y52.4

M3 S165
G0 F2000
G0 X411.4 Y52.6
M3 S148
G0 F2000
G0 X411.4 Y52.6
G0 X411.6 Y52.7
G0 X411.6 Y52.7
G0 X411.9 Y52.7
G0 X412.5 Y52.6
G0 X413.2 Y52.4
G0 X413.7 Y51.9
G0 X413.9 Y51.5
G0 X413.9 Y51.3
G0 X413.9 Y51.3
G0 X413.8 Y51.1
G0 X413.6 Y50.9
G0 X411.4 Y52.6

M3 S165
G0 F2000
G0 X254.9 Y54.8
M3 S148
G0 F2000
G0 X254.9 Y54.6
G0 X254.8 Y53.8
G0 X254.9 Y52.9
G0 X255.3 Y52.0
G0 X255.9 Y51.4
G0 X256.1 Y51.2
G0 X256.2 Y51.1
G0 X256.6 Y50.5
G0 X257.0 Y49.8
G0 X257.0 Y49.7
G0 X257.1 Y49.6
G0 X257.1 Y49.2
G0 X257.0 Y48.8
G0 X256.6 Y48.4
G0 X256.1 Y48.2
G0 X256.0 Y48.1
G0 X255.8 Y48.4
G0 X254.9 Y49.8
G0 X253.8 Y51.0
G0 X253.5 Y51.2
G0 X253.3 Y51.4
G0 X252.2 Y52.5
G0 X251.4 Y53.8
G0 X251.2 Y54.0
G0 X251.0 Y54.4
G0 X250.0 Y55.7
G0 X248.5 Y57.1
G0 X246.6 Y58.3
G0 X244.9 Y59.0
G0 X244.3 Y59.2
G0 X244.1 Y59.3
G0 X242.9 Y59.5
G0 X241.7 Y59.4
G0 X241.4 Y59.3
G0 X241.4 Y59.3
G0 X241.4 Y59.4
G0 X240.7 Y59.8
G0 X240.7 Y59.9
G0 X240.3 Y60.3
G0 X239.6 Y61.7
G0 X239.1 Y63.6
G0 X236.8 Y72.2

M3 S165
G0 F2000
G0 X211.7 Y55.0
M3 S148
G0 F2000
G0 X211.6 Y55.0
G0 X211.4 Y55.0
G0 X211.3 Y55.0
G0 X211.3 Y55.0
G0 X211.2 Y55.2
G0 X211.3 Y55.4
G0 X211.4 Y55.4
G0 X211.7 Y55.0

M3 S165
G0 F2000
G0 X494.0 Y55.3
M3 S148
G0 F2000
G0 X494.0 Y55.2
G0 X493.9 Y54.9
G0 X493.9 Y54.8
G0 X493.8 Y54.8
G0 X493.5 Y54.2
G0 X493.4 Y53.7
G0 X493.3 Y53.6
G0 X493.4 Y53.6
G0 X493.2 Y53.6
G0 X492.8 Y53.7
G0 X492.3 Y53.9
G0 X492.0 Y54.1
G0 X491.8 Y54.5
G0 X491.8 Y54.6
G0 X491.8 Y54.7
G0 X491.6 Y56.1
G0 X491.6 Y56.2
G0 X491.7 Y57.1
G0 X491.6 Y59.6
G0 X491.2 Y62.9
G0 X490.5 Y66.2
G0 X489.7 Y68.6
G0 X489.4 Y69.4
G0 X489.6 Y69.4
G0 X490.0 Y69.4
G0 X490.3 Y69.6
G0 X490.4 Y69.9
G0 X490.4 Y70.2
G0 X490.4 Y70.3
G0 X490.4 Y70.6
G0 X490.2 Y74.3
G0 X490.2 Y74.7
G0 X490.2 Y74.8
G0 X490.2 Y75.1
G0 X490.2 Y75.5
G0 X490.5 Y75.9
G0 X490.9 Y76.2
G0 X491.1 Y76.3
G0 X491.2 Y76.2
G0 X491.6 Y75.6
G0 X491.7 Y74.8
G0 X491.6 Y74.0
G0 X491.7 Y73.4
G0 X491.7 Y73.2
G0 X491.8 Y72.9
G0 X492.4 Y70.2
G0 X492.4 Y69.9
G0 X492.5 Y69.6
G0 X493.1 Y66.9
G0 X493.2 Y66.6
G0 X493.2 Y66.6
G0 X492.9 Y66.2
G0 X492.4 Y64.9
G0 X492.4 Y63.2
G0 X492.8 Y61.6
G0 X493.4 Y60.4
G0 X494.0 Y55.3

M3 S165
G0 F2000
G0 X502.1 Y58.5
M3 S148
G0 F2000
G0 X501.9 Y58.5
G0 X501.2 Y58.5
G0 X500.5 Y58.7
G0 X500.4 Y58.7
G0 X500.1 Y58.8
G0 X499.6 Y59.0
G0 X498.9 Y59.5
G0 X498.4 Y60.0
G0 X498.2 Y60.5
G0 X498.2 Y60.7
G0 X498.3 Y61.1
G0 X498.7 Y62.3
G0 X499.5 Y63.7
G0 X500.5 Y65.1
G0 X501.3 Y66.2
G0 X501.5 Y66.5
G0 X501.7 Y67.0
G0 X502.9 Y69.2
G0 X503.9 Y71.5
G0 X504.1 Y72.0
G0 X504.3 Y72.2
G0 X505.4 Y73.4
G0 X506.2 Y74.6
G0 X509.2 Y76.0

M3 S165
G0 F2000
G0 X498.6 Y60.9
M3 S148
G0 F2000
G0 X498.6 Y60.8
G0 X498.0 Y59.4
G0 X497.9 Y59.3
G0 X497.6 Y59.1
G0 X496.9 Y58.3
G0 X496.1 Y57.2
G0 X495.2 Y56.2
G0 X494.4 Y55.5
G0 X494.0 Y55.3
G0 X493.9 Y56.0
G0 X492.1 Y63.3
G0 X492.0 Y64.0
G0 X492.0 Y64.1
G0 X491.8 Y65.7
G0 X491.8 Y65.9
G0 X491.8 Y66.0
G0 X492.0 Y66.2
G0 X492.2 Y66.5
G0 X492.7 Y66.6
G0 X493.1 Y66.6
G0 X493.2 Y66.6
G0 X493.2 Y66.2
G0 X493.2 Y62.8
G0 X493.3 Y62.5
G0 X493.3 Y62.4
G0 X493.3 Y62.0
G0 X493.4 Y61.5
G0 X493.8 Y61.0
G0 X494.4 Y60.7
G0 X494.6 Y60.7
G0 X494.7 Y60.7
G0 X495.0 Y60.9
G0 X495.3 Y61.2
G0 X495.5 Y61.6
G0 X495.6 Y62.0
G0 X495.8 Y62.4
G0 X495.9 Y62.8
G0 X496.2 Y63.1
G0 X496.5 Y63.4
G0 X498.6 Y60.9

M3 S165
G0 F2000
G0 X498.6 Y60.9
M3 S148
G0 F2000
G0 X498.7 Y60.9
G0 X499.2 Y61.0
G0 X499.3 Y61.0
G0 X499.4 Y60.8
G0 X499.9 Y60.1
G0 X500.7 Y59.4
G0 X500.9 Y59.3
G0 X500.7 Y59.3
G0 X499.4 Y58.8
G0 X499.3 Y58.8
G0 X499.3 Y58.8
G0 X498.6 Y60.9

M3 S165
G0 F2000
G0 X144.7 Y61.4
M3 S148
G0 F2000
G0 X144.7 Y61.7
G0 X145.0 Y62.6
G0 X145.5 Y63.8
G0 X145.8 Y65.0
G0 X145.8 Y66.0
G0 X145.6 Y66.3
G0 X145.6 Y66.5
G0 X145.8 Y67.0
G0 X145.9 Y67.8
G0 X145.9 Y74.4

M3 S165
G0 F2000
G0 X498.5 Y62.7
M3 S148
G0 F2000
G0 X498.8 Y62.8
G0 X499.5 Y63.4
G0 X500.2 Y64.2
G0 X500.6 Y65.0
G0 X500.9 Y65.7
G0 X501.0 Y66.0
G0 X501.2 Y66.4
G0 X501.7 Y67.6
G0 X502.6 Y69.1
G0 X503.8 Y70.4
G0 X505.0 Y71.4
G0 X505.4 Y71.6
G0 X505.2 Y71.0
G0 X504.4 Y69.2
G0 X503.1 Y66.8
G0 X501.6 Y64.5
G0 X500.5 Y62.8
G0 X500.1 Y62.2
G0 X500.1 Y62.1
G0 X499.4 Y61.1
G0 X499.3 Y61.0
G0 X499.2 Y61.0
G0 X498.8 Y60.9
G0 X498.3 Y61.0
G0 X498.2 Y61.0
G0 X498.5 Y62.7

M3 S165
G0 F2000
G0 X277.2 Y65.2
M3 S148
G0 F2000
G0 X278.1 Y65.5
G0 X280.7 Y66.4
G0 X284.1 Y67.7
G0 X287.4 Y69.2
G0 X289.7 Y70.5
G0 X290.4 Y71.0
G0 X290.4 Y71.2
G0 X290.5 Y71.6
G0 X290.8 Y72.1
G0 X291.3 Y72.5
G0 X291.8 Y72.8
G0 X292.4 Y73.1
G0 X294.3 Y74.7

M3 S165
G0 F2000
G0 X147.4 Y69.4
M3 S148
G0 F2000
G0 X147.5 Y69.2
G0 X147.8 Y68.7
G0 X147.9 Y68.0
G0 X147.8 Y67.3
G0 X147.5 Y66.8
G0 X147.3 Y66.6
G0 X147.3 Y66.7
G0 X147.3 Y67.0
G0 X147.2 Y67.3
G0 X145.2 Y68.2

M3 S165
G0 F2000
G0 X295.7 Y73.3
M3 S148
G0 F2000
G0 X295.6 Y73.3
G0 X295.3 Y73.3
G0 X294.9 Y73.2
G0 X294.5 Y73.2
G0 X294.1 Y73.2
G0 X293.8 Y73.4
G0 X293.6 Y73.5
G0 X293.4 Y73.8
G0 X293.4 Y74.2
G0 X293.4 Y74.3
G0 X293.4 Y74.4
G0 X293.2 Y74.7
G0 X293.0 Y75.1
G0 X292.9 Y75.6
G0 X293.0 Y76.0
G0 X293.2 Y76.2
G0 X295.7 Y73.3

M3 S165
G0 F2000
G0 X450.1 Y73.6
M3 S148
G0 F2000
G0 X450.1 Y73.6
G0 X449.9 Y73.7
G0 X449.8 Y73.9
G0 X449.8 Y73.9
G0 X449.8 Y73.9
G0 X449.9 Y74.1
G0 X450.1 Y74.2
G0 X450.1 Y74.3
G0 X450.1 Y74.2
G0 X450.1 Y73.6

M3 S165
G0 F2000
G0 X512.2 Y77.0
M3 S148
G0 F2000
G0 X512.0 Y77.1
G0 X511.2 Y77.6
G0 X510.3 Y77.8
G0 X510.0 Y77.8
G0 X510.1 Y78.0
G0 X510.3 Y78.5
G0 X510.7 Y79.0
G0 X511.4 Y79.3
G0 X512.0 Y79.4
G0 X518.4 Y79.9

M3 S165
G0 F2000
G0 X147.3 Y78.4
M3 S148
G0 F2000
G0 X147.5 Y78.2
G0 X147.8 Y77.4
G0 X148.0 Y76.4
G0 X147.8 Y75.4
G0 X147.6 Y74.6
G0 X147.4 Y74.4
G0 X147.2 Y74.6
G0 X146.9 Y74.7
G0 X146.3 Y75.4
G0 X147.3 Y78.4

M3 S165
G0 F2000
G0 X507.0 Y78.9
M3 S148
G0 F2000
G0 X506.9 Y78.4
G0 X506.2 Y77.1
G0 X505.2 Y75.4
G0 X503.9 Y73.7
G0 X503.1 Y72.5
G0 X502.8 Y72.1
G0 X502.4 Y71.5
G0 X501.4 Y69.8
G0 X500.2 Y67.5
G0 X499.2 Y65.1
G0 X498.7 Y63.3
G0 X498.5 Y62.7
G0 X498.5 Y62.6
G0 X498.4 Y62.3
G0 X498.4 Y62.3
G0 X498.2 Y62.2
G0 X497.7 Y61.9
G0 X497.3 Y61.4
G0 X496.9 Y60.8
G0 X496.7 Y60.4
G0 X496.6 Y60.3
G0 X496.6 Y60.2
G0 X496.3 Y59.9
G0 X495.8 Y59.6
G0 X495.2 Y59.4
G0 X494.7 Y59.3
G0 X494.5 Y59.4
G0 X494.3 Y59.4
G0 X493.8 Y59.5
G0 X493.3 Y59.7
G0 X492.9 Y60.1
G0 X492.8 Y60.5
G0 X492.7 Y60.6
G0 X492.6 Y61.0
G0 X492.3 Y62.0
G0 X492.0 Y63.5
G0 X492.1 Y65.0
G0 X492.5 Y66.1
G0 X492.7 Y66.5
G0 X492.8 Y66.5
G0 X493.2 Y66.6
G0 X493.2 Y66.6
G0 X493.4 Y66.7
G0 X493.8 Y66.8
G0 X494.2 Y67.0
G0 X494.6 Y67.3
G0 X494.9 Y67.6
G0 X494.9 Y67.7
G0 X495.0 Y68.0
G0 X495.3 Y68.8
G0 X496.0 Y69.8
G0 X496.7 Y70.7
G0 X497.5 Y71.7
G0 X498.4 Y72.6
G0 X499.2 Y73.5
G0 X499.9 Y74.5
G0 X500.4 Y75.2
G0 X507.0 Y78.9

M3 S165
G0 F2000
G0 X558.5 Y83.7
M3 S148
G0 F2000
G0 X558.7 Y83.8
G0 X559.0 Y83.9
G0 X559.4 Y84.2
G0 X559.8 Y84.5
G0 X560.1 Y84.7
G0 X560.3 Y84.7
G0 X560.4 Y84.8
G0 X561.1 Y84.8
G0 X561.8 Y84.8
G0 X564.1 Y84.7

M3 S165
G0 F2000
G0 X287.3 Y85.2
M3 S148
G0 F2000
G0 X287.4 Y85.1
G0 X287.8 Y84.7
G0 X288.2 Y84.0
G0 X288.6 Y83.4
G0 X289.0 Y82.8
G0 X289.4 Y82.1
G0 X289.9 Y81.6
G0 X290.6 Y81.0
G0 X291.2 Y80.7
G0 X291.4 Y80.6
G0 X291.7 Y80.5
G0 X292.4 Y80.0
G0 X293.2 Y79.4
G0 X293.9 Y78.7
G0 X294.6 Y77.9
G0 X295.1 Y77.1
G0 X295.6 Y76.3
G0 X296.1 Y75.5
G0 X296.6 Y74.9
G0 X296.7 Y74.7
G0 X296.8 Y74.6
G0 X296.8 Y74.3
G0 X296.6 Y73.9
G0 X296.2 Y73.6
G0 X295.9 Y73.4
G0 X295.7 Y73.3
G0 X295.7 Y73.4
G0 X295.1 Y73.8
G0 X290.4 Y71.0

M3 S165
G0 F2000
G0 X146.5 Y85.6
M3 S148
G0 F2000
G0 X146.6 Y85.8
G0 X146.9 Y86.4
G0 X147.6 Y86.8
G0 X148.4 Y87.0
G0 X149.3 Y86.9
G0 X149.5 Y86.9
G0 X149.7 Y86.5
G0 X150.0 Y85.0
G0 X149.7 Y83.4
G0 X149.5 Y83.0
G0 X149.4 Y82.7
G0 X149.1 Y81.5
G0 X148.9 Y79.9
G0 X149.1 Y78.3
G0 X149.5 Y77.1
G0 X149.7 Y76.8
G0 X149.8 Y76.5
G0 X150.2 Y75.4
G0 X150.1 Y74.2
G0 X150.0 Y74.0
G0 X149.8 Y73.3
G0 X149.5 Y71.1
G0 X149.2 Y68.2
G0 X148.8 Y65.3
G0 X148.3 Y63.2
G0 X148.1 Y62.5
G0 X148.0 Y62.1
G0 X147.4 Y60.3
G0 X146.8 Y58.5
G0 X146.7 Y58.1
G0 X146.7 Y58.0
G0 X146.4 Y57.3
G0 X146.3 Y56.6
G0 X146.4 Y56.5
G0 X146.5 Y56.3
G0 X146.8 Y55.6
G0 X146.9 Y54.8
G0 X146.9 Y53.9
G0 X146.6 Y53.2
G0 X146.4 Y53.0
G0 X146.4 Y52.9
G0 X146.3 Y52.3
G0 X146.6 Y51.8
G0 X146.7 Y51.7
G0 X146.7 Y51.5
G0 X146.1 Y45.9

M3 S165
G0 F2000
G0 X569.7 Y87.8
M3 S148
G0 F2000
G0 X569.6 Y87.6
G0 X569.0 Y85.3
G0 X568.9 Y85.1
G0 X568.8 Y85.0
G0 X568.2 Y84.8
G0 X567.5 Y85.0
G0 X567.4 Y85.0
G0 X569.7 Y87.8

M3 S165
G0 F2000
G0 X569.7 Y87.8
M3 S148
G0 F2000
G0 X569.7 Y87.9
G0 X569.8 Y88.0
G0 X569.9 Y88.2
G0 X570.1 Y88.3
G0 X570.3 Y88.4
G0 X570.4 Y88.3
G0 X570.4 Y88.3
G0 X569.7 Y87.8

M3 S165
G0 F2000
G0 X285.0 Y88.4
M3 S148
G0 F2000
G0 X285.2 Y88.3
G0 X285.7 Y88.1
G0 X286.2 Y87.7
G0 X286.5 Y87.3
G0 X286.7 Y86.9
G0 X286.8 Y86.8
G0 X286.8 Y86.7
G0 X287.3 Y86.2
G0 X287.4 Y86.2
G0 X288.1 Y85.0

M3 S165
G0 F2000
G0 X407.1 Y89.2
M3 S148
G0 F2000
G0 X407.0 Y89.2
G0 X406.9 Y89.0
G0 X406.8 Y89.0
G0 X406.8 Y89.0
G0 X406.5 Y89.1
G0 X406.4 Y89.2
G0 X406.4 Y89.3
G0 X406.4 Y89.3
G0 X407.1 Y89.2

M3 S165
G0 F2000
G0 X146.7 Y94.0
M3 S148
G0 F2000
G0 X146.9 Y93.9
G0 X149.3 Y93.8
G0 X149.5 Y93.8
G0 X149.6 Y93.7
G0 X149.9 Y93.2
G0 X150.1 Y92.5
G0 X150.1 Y91.9
G0 X150.0 Y91.4
G0 X150.0 Y91.2
G0 X149.9 Y90.8
G0 X149.6 Y87.2
G0 X149.5 Y86.9
G0 X149.4 Y86.8
G0 X149.0 Y86.5
G0 X148.7 Y86.2
G0 X148.5 Y85.7
G0 X148.5 Y85.3
G0 X148.5 Y85.2
G0 X148.6 Y85.0
G0 X148.7 Y84.4
G0 X148.6 Y83.6
G0 X148.3 Y82.7
G0 X148.2 Y82.1
G0 X146.1 Y81.3

M3 S165
G0 F2000
G0 X279.6 Y94.1
M3 S148
G0 F2000
G0 X279.5 Y94.3
G0 X278.7 Y95.2
G0 X277.8 Y96.1
G0 X277.6 Y96.2
G0 X277.3 Y96.6
G0 X276.3 Y97.4
G0 X274.9 Y98.5
G0 X273.7 Y99.7
G0 X273.0 Y100.7
G0 X272.9 Y101.1
G0 X267.6 Y109.2

M3 S165
G0 F2000
G0 X491.7 Y96.6
M3 S148
G0 F2000
G0 X491.8 Y96.6
G0 X491.9 Y96.4
G0 X491.8 Y96.3
G0 X491.7 Y96.2
G0 X491.7 Y96.2
G0 X491.4 Y96.2
G0 X491.4 Y96.2
G0 X491.7 Y96.6

M3 S165
G0 F2000
G0 X279.0 Y96.8
M3 S148
G0 F2000
G0 X279.2 Y96.6
G0 X280.2 Y95.7
G0 X281.0 Y94.6
G0 X281.1 Y94.4
G0 X281.0 Y94.4
G0 X280.5 Y94.2
G0 X280.4 Y94.2
G0 X280.5 Y94.2
G0 X280.8 Y94.1
G0 X281.1 Y94.1
G0 X283.5 Y91.1

M3 S165
G0 F2000
G0 X644.1 Y98.4
M3 S148
G0 F2000
G0 X644.5 Y98.6
G0 X645.7 Y99.2
G0 X647.1 Y100.1
G0 X648.5 Y101.1
G0 X649.6 Y101.7
G0 X650.0 Y101.9
G0 X650.1 Y101.9
G0 X650.5 Y102.0
G0 X651.0 Y101.8
G0 X646.7 Y97.7

M3 S165
G0 F2000
G0 X646.1 Y98.4
M3 S148
G0 F2000
G0 X646.4 Y98.6
G0 X647.3 Y99.2
G0 X648.4 Y100.0
G0 X649.4 Y100.9
G0 X650.1 Y101.5
G0 X650.4 Y101.8
G0 X650.5 Y102.0
G0 X651.0 Y102.7
G0 X651.9 Y103.6
G0 X652.8 Y104.4
G0 X653.5 Y105.0
G0 X653.7 Y105.2
G0 X654.2 Y105.7
G0 X655.7 Y107.3
G0 X657.5 Y109.6
G0 X659.2 Y111.8
G0 X660.5 Y113.5
G0 X661.0 Y114.0
G0 X661.1 Y114.1
G0 X661.6 Y114.6
G0 X661.6 Y114.7
G0 X661.8 Y114.8
G0 X662.9 Y115.8
G0 X663.0 Y115.8
G0 X663.1 Y115.9
G0 X663.7 Y116.4
G0 X663.8 Y116.4
G0 X663.9 Y116.5
G0 X664.4 Y117.0
G0 X665.0 Y117.7
G0 X665.4 Y118.3
G0 X665.8 Y118.9
G0 X665.9 Y119.0
G0 X665.9 Y119.1
G0 X666.1 Y119.3
G0 X666.3 Y119.6
G0 X668.4 Y119.7

M3 S165
G0 F2000
G0 X489.7 Y101.7
M3 S148
G0 F2000
G0 X489.5 Y101.8
G0 X489.0 Y102.1
G0 X488.5 Y102.5
G0 X488.3 Y103.0
G0 X488.2 Y103.3
G0 X488.2 Y103.5
G0 X488.2 Y103.6
G0 X488.0 Y105.5
G0 X488.0 Y105.6
G0 X487.9 Y105.8
G0 X487.9 Y106.3
G0 X487.9 Y106.9
G0 X488.1 Y107.3
G0 X488.5 Y107.7
G0 X488.9 Y107.9
G0 X489.6 Y108.0
G0 X490.3 Y108.0
G0 X491.0 Y107.9
G0 X491.2 Y107.9
G0 X491.4 Y107.8
G0 X492.0 Y107.7
G0 X492.5 Y107.3
G0 X492.8 Y106.9
G0 X492.9 Y106.5
G0 X489.7 Y101.7

M3 S165
G0 F2000
G0 X651.0 Y101.8
M3 S148
G0 F2000
G0 X650.9 Y101.8
G0 X650.1 Y101.8
G0 X650.0 Y101.9
G0 X650.0 Y102.2
G0 X650.4 Y103.2
G0 X651.2 Y104.4
G0 X652.4 Y105.5
G0 X653.5 Y106.1
G0 X653.9 Y106.3
G0 X653.9 Y106.3
G0 X654.0 Y106.2
G0 X654.4 Y106.0
G0 X654.9 Y105.7
G0 X655.0 Y105.2
G0 X654.7 Y104.8
G0 X651.0 Y101.8

M3 S165
G0 F2000
G0 X654.6 Y104.7
M3 S148
G0 F2000
G0 X654.5 Y104.8
G0 X653.9 Y106.2
G0 X653.9 Y106.3
G0 X654.1 Y106.4
G0 X654.9 Y106.7
G0 X655.7 Y107.2
G0 X656.3 Y107.9
G0 X656.7 Y108.5
G0 X656.8 Y108.7
G0 X657.0 Y109.0
G0 X657.8 Y110.2
G0 X659.1 Y111.7
G0 X660.6 Y113.0
G0 X661.9 Y113.9
G0 X654.6 Y104.7

M3 S165
G0 F2000
G0 X503.3 Y106.3
M3 S148
G0 F2000
G0 X503.3 Y106.3
G0 X503.2 Y105.9
G0 X502.8 Y105.8
G0 X502.7 Y105.7
G0 X502.6 Y105.7
G0 X502.3 Y105.8
G0 X502.1 Y105.9
G0 X501.9 Y106.1
G0 X501.9 Y106.3
G0 X501.9 Y106.4
G0 X501.9 Y106.5
G0 X503.3 Y106.3

M3 S165
G0 F2000
G0 X408.6 Y107.8
M3 S148
G0 F2000
G0 X408.6 Y107.8
G0 X408.5 Y107.5
G0 X408.3 Y107.5
G0 X408.2 Y107.5
G0 X408.2 Y107.5
G0 X408.1 Y107.5
G0 X408.0 Y107.6
G0 X408.0 Y107.6
G0 X408.6 Y107.8

M3 S165
G0 F2000
G0 X472.5 Y115.8
M3 S148
G0 F2000
G0 X472.7 Y115.8
G0 X473.4 Y115.8
G0 X474.2 Y115.6
G0 X474.9 Y115.2
G0 X475.4 Y114.9
G0 X475.6 Y114.8
G0 X475.8 Y114.7
G0 X476.3 Y114.2
G0 X476.6 Y113.6
G0 X476.5 Y112.9
G0 X476.1 Y112.3
G0 X476.0 Y112.2
G0 X475.9 Y112.0
G0 X475.5 Y111.7
G0 X474.8 Y111.3
G0 X474.1 Y111.1
G0 X473.4 Y111.1
G0 X473.2 Y111.2
G0 X473.0 Y111.2
G0 X472.5 Y111.4
G0 X472.1 Y111.9
G0 X472.0 Y112.4
G0 X472.0 Y112.8
G0 X472.0 Y113.0
G0 X472.0 Y113.0
G0 X472.1 Y113.7
G0 X472.5 Y115.8

M3 S165
G0 F2000
G0 X663.8 Y117.0
M3 S148
G0 F2000
G0 X663.8 Y116.8
G0 X664.0 Y115.8
G0 X664.0 Y115.7
G0 X664.0 Y115.8
G0 X663.8 Y115.7
G0 X663.0 Y115.0
G0 X662.5 Y114.2
G0 X662.3 Y114.0
G0 X662.4 Y114.1
G0 X661.9 Y113.6
G0 X659.5 Y111.1
G0 X657.4 Y108.4
G0 X657.0 Y107.9
G0 X657.0 Y107.8
G0 X656.8 Y107.5
G0 X656.6 Y107.2
G0 X656.4 Y106.9
G0 X656.1 Y106.6
G0 X655.8 Y106.3
G0 X655.4 Y106.1
G0 X654.9 Y106.0
G0 X654.4 Y106.0
G0 X654.3 Y106.0
G0 X654.2 Y106.1
G0 X653.9 Y106.3
G0 X653.9 Y106.3
G0 X653.9 Y106.8
G0 X654.3 Y108.1
G0 X655.0 Y109.6
G0 X663.8 Y117.0

M3 S165
G0 F2000
G0 X260.2 Y117.2
M3 S148
G0 F2000
G0 X260.2 Y117.2
G0 X259.9 Y117.1
G0 X259.7 Y117.0
G0 X259.7 Y117.0
G0 X259.6 Y117.0
G0 X259.2 Y117.1
G0 X259.1 Y117.4
G0 X259.2 Y117.5
G0 X260.2 Y117.2

M3 S165
G0 F2000
G0 X251.4 Y117.5
M3 S148
G0 F2000
G0 X251.4 Y117.0
G0 X251.4 Y116.1
G0 X251.4 Y115.8
G0 X251.3 Y115.7
G0 X250.9 Y115.4
G0 X250.4 Y115.1
G0 X250.3 Y115.1
G0 X250.2 Y115.0
G0 X249.7 Y114.9
G0 X249.3 Y115.0
G0 X249.0 Y115.3
G0 X248.9 Y115.7
G0 X248.9 Y115.8
G0 X248.9 Y115.9
G0 X248.9 Y116.2
G0 X249.1 Y116.5
G0 X251.4 Y117.5

M3 S165
G0 F2000
G0 X251.4 Y117.5
M3 S148
G0 F2000
G0 X251.6 Y117.5
G0 X252.1 Y117.7
G0 X252.7 Y117.8
G0 X253.4 Y118.0
G0 X254.0 Y118.0
G0 X254.6 Y117.9
G0 X255.3 Y117.7
G0 X255.9 Y117.3
G0 X256.3 Y116.9
G0 X256.4 Y116.7
G0 X256.3 Y116.7
G0 X255.8 Y116.5
G0 X255.2 Y116.2
G0 X254.7 Y116.0
G0 X254.1 Y115.8
G0 X253.5 Y115.6
G0 X252.8 Y115.5
G0 X252.2 Y115.6
G0 X251.6 Y115.7
G0 X251.4 Y117.5

M3 S165
G0 F2000
G0 X668.4 Y119.7
M3 S148
G0 F2000
G0 X668.2 Y119.7
G0 X667.5 Y119.6
G0 X667.0 Y119.3
G0 X666.9 Y119.2
G0 X666.6 Y118.9
G0 X664.2 Y116.0
G0 X664.0 Y115.7
G0 X663.9 Y115.8
G0 X663.6 Y116.0
G0 X663.5 Y116.3
G0 X663.5 Y116.6
G0 X663.7 Y116.9
G0 X663.8 Y117.0
G0 X664.0 Y117.3
G0 X665.0 Y119.3
G0 X665.7 Y121.3
G0 X669.7 Y126.8

M3 S165
G0 F2000
G0 X252.4 Y120.2
M3 S148
G0 F2000
G0 X252.3 Y120.2
G0 X252.1 Y120.3
G0 X251.9 Y120.4
G0 X251.8 Y120.5
G0 X251.8 Y120.7
G0 X251.8 Y120.8
G0 X251.8 Y120.8
G0 X252.1 Y121.1
G0 X252.5 Y121.2
G0 X252.6 Y121.1
G0 X252.7 Y121.1
G0 X252.4 Y120.2

M3 S165
G0 F2000
G0 X666.6 Y120.3
M3 S148
G0 F2000
G0 X666.5 Y120.0
G0 X666.3 Y119.3
G0 X666.0 Y118.4
G0 X665.5 Y117.5
G0 X665.1 Y116.9
G0 X664.9 Y116.7
G0 X664.4 Y116.3
G0 X659.5 Y112.8
G0 X659.0 Y112.5
G0 X658.7 Y112.3
G0 X658.0 Y111.8
G0 X657.3 Y111.0
G0 X656.7 Y110.2
G0 X656.3 Y109.3
G0 X655.9 Y108.5
G0 X655.5 Y107.6
G0 X655.1 Y106.7
G0 X654.7 Y106.1
G0 X650.8 Y101.5

M3 S165
G0 F2000
G0 X257.4 Y121.3
M3 S148
G0 F2000
G0 X257.4 Y121.2
G0 X257.2 Y120.8
G0 X256.9 Y120.4
G0 X256.4 Y120.3
G0 X255.8 Y120.4
G0 X255.7 Y120.4
G0 X255.4 Y120.6
G0 X254.6 Y121.1
G0 X253.8 Y121.9
G0 X253.3 Y123.0
G0 X253.2 Y123.9
G0 X253.2 Y124.2
G0 X253.4 Y124.2
G0 X254.0 Y123.9
G0 X254.5 Y123.6
G0 X255.0 Y123.2
G0 X257.4 Y121.3

M3 S165
G0 F2000
G0 X405.2 Y125.3
M3 S148
G0 F2000
G0 X405.2 Y127.0
G0 X405.2 Y127.0
G0 X405.4 Y127.0
G0 X405.8 Y127.0
G0 X406.2 Y126.8
G0 X406.4 Y126.5
G0 X406.4 Y126.1
G0 X406.4 Y126.0
G0 X405.2 Y125.3

M3 S165
G0 F2000
G0 X484.8 Y127.0
M3 S148
G0 F2000
G0 X484.8 Y127.2
G0 X484.7 Y127.7
G0 X484.5 Y128.4
G0 X484.5 Y129.1
G0 X484.7 Y129.8
G0 X484.8 Y130.0
G0 X485.1 Y129.8
G0 X486.0 Y129.1
G0 X486.9 Y128.1
G0 X487.5 Y127.0
G0 X487.8 Y126.2
G0 X487.8 Y125.9
G0 X487.7 Y125.6
G0 X487.6 Y124.8
G0 X487.7 Y123.8
G0 X487.9 Y122.8
G0 X488.2 Y122.0
G0 X488.3 Y121.8
G0 X488.6 Y121.1
G0 X489.2 Y119.0
G0 X489.6 Y116.3
G0 X489.5 Y113.4
G0 X489.2 Y111.2
G0 X489.1 Y110.5
G0 X488.9 Y110.6
G0 X488.4 Y111.0
G0 X488.0 Y111.5
G0 X487.9 Y112.0
G0 X487.9 Y112.4
G0 X487.9 Y112.6
G0 X487.7 Y113.5
G0 X487.2 Y118.3
G0 X486.5 Y123.0
G0 X484.8 Y127.0

M3 S165
G0 F2000
G0 X243.0 Y137.1
M3 S148
G0 F2000
G0 X243.3 Y137.1
G0 X244.2 Y137.4
G0 X245.5 Y137.9
G0 X246.7 Y138.2
G0 X247.8 Y138.2
G0 X248.1 Y138.2
G0 X248.2 Y138.1
G0 X248.3 Y137.7
G0 X248.2 Y137.3
G0 X247.9 Y136.9
G0 X247.6 Y136.7
G0 X247.6 Y136.6
G0 X247.3 Y136.4
G0 X246.8 Y135.9
G0 X246.2 Y135.3
G0 X245.8 Y134.8
G0 X245.7 Y134.4
G0 X245.8 Y133.9
G0 X246.2 Y133.4
G0 X246.8 Y132.8
G0 X247.4 Y132.2
G0 X247.6 Y132.0
G0 X247.3 Y131.7
G0 X244.5 Y127.8
G0 X244.2 Y127.4
G0 X244.1 Y127.3
G0 X243.8 Y126.9
G0 X243.2 Y126.4
G0 X242.5 Y126.1
G0 X241.7 Y126.0
G0 X241.4 Y126.0
G0 X241.3 Y126.3
G0 X240.8 Y127.1
G0 X240.4 Y128.2
G0 X243.0 Y137.1

M3 S165
G0 F2000
G0 X615.3 Y139.5
M3 S148
G0 F2000
G0 X615.1 Y139.5
G0 X614.7 Y139.6
G0 X614.5 Y139.6
G0 X614.5 Y139.6
G0 X614.3 Y139.8
G0 X613.7 Y140.2
G0 X613.2 Y140.9
G0 X613.2 Y141.7
G0 X613.5 Y142.3
G0 X613.6 Y142.5
G0 X613.6 Y142.5
G0 X613.8 Y142.6
G0 X614.0 Y142.6
G0 X614.3 Y142.7
G0 X614.5 Y142.6
G0 X615.3 Y139.5

M3 S165
G0 F2000
G0 X102.4 Y139.8
M3 S148
G0 F2000
G0 X102.7 Y140.2
G0 X105.6 Y144.5
G0 X105.9 Y145.0
G0 X106.0 Y145.0
G0 X106.1 Y145.4
G0 X106.1 Y145.4
G0 X106.1 Y145.5
G0 X106.2 Y145.7
G0 X106.3 Y145.7
G0 X106.4 Y145.7
G0 X106.4 Y145.7
G0 X106.7 Y145.6
G0 X106.7 Y145.5
G0 X106.7 Y145.4
G0 X107.5 Y144.0
G0 X107.6 Y143.9
G0 X107.6 Y143.8
G0 X107.6 Y143.4
G0 X107.8 Y143.0
G0 X108.1 Y142.6
G0 X108.4 Y142.2
G0 X108.7 Y141.8
G0 X108.9 Y141.3
G0 X108.8 Y140.9
G0 X108.5 Y140.5
G0 X108.3 Y140.4
G0 X108.4 Y140.4
G0 X108.2 Y140.5
G0 X107.8 Y140.8
G0 X107.2 Y141.3
G0 X106.6 Y141.7
G0 X106.0 Y141.8
G0 X105.7 Y141.8
G0 X105.6 Y141.8
G0 X105.1 Y141.4
G0 X104.7 Y140.9
G0 X102.4 Y139.8

M3 S165
G0 F2000
G0 X108.3 Y140.4
M3 S148
G0 F2000
G0 X108.3 Y140.6
G0 X108.0 Y141.6
G0 X107.3 Y142.5
G0 X107.1 Y142.6
G0 X107.0 Y142.7
G0 X106.7 Y143.0
G0 X106.8 Y143.4
G0 X107.1 Y143.7
G0 X107.5 Y143.8
G0 X107.6 Y143.9
G0 X107.9 Y143.7
G0 X108.8 Y142.7
G0 X109.5 Y141.5
G0 X108.3 Y140.4

M3 S165
G0 F2000
G0 X108.4 Y140.4
M3 S148
G0 F2000
G0 X108.5 Y140.2
G0 X108.7 Y139.7
G0 X109.1 Y139.3
G0 X109.6 Y139.0
G0 X110.2 Y138.8
G0 X110.8 Y138.7
G0 X111.5 Y138.7
G0 X112.2 Y138.7
G0 X112.8 Y138.7
G0 X113.0 Y138.7
G0 X112.6 Y138.6
G0 X111.4 Y138.3
G0 X109.8 Y138.0
G0 X108.3 Y137.7
G0 X107.1 Y137.5
G0 X106.7 Y137.5
G0 X106.4 Y137.5
G0 X105.3 Y137.6
G0 X104.1 Y138.0
G0 X102.9 Y138.7
G0 X102.1 Y139.2
G0 X101.8 Y139.4
G0 X101.8 Y139.4
G0 X101.8 Y139.6
G0 X102.0 Y139.9
G0 X102.0 Y139.9
G0 X102.0 Y139.9
G0 X102.5 Y140.1
G0 X102.5 Y140.1
G0 X102.6 Y140.2
G0 X102.9 Y140.7
G0 X103.2 Y141.2
G0 X103.3 Y141.3
G0 X103.4 Y141.5
G0 X103.9 Y142.0
G0 X104.6 Y142.5
G0 X105.5 Y142.8
G0 X106.3 Y142.8
G0 X108.4 Y140.4

M3 S165
G0 F2000
G0 X100.0 Y143.2
M3 S148
G0 F2000
G0 X100.3 Y143.3
G0 X101.4 Y143.7
G0 X102.8 Y144.2
G0 X104.3 Y144.7
G0 X105.5 Y144.9
G0 X105.9 Y145.0
G0 X106.0 Y144.7
G0 X106.1 Y144.1
G0 X106.0 Y143.3
G0 X105.6 Y142.7
G0 X105.1 Y142.1
G0 X104.5 Y141.5
G0 X103.8 Y140.9
G0 X103.1 Y140.4
G0 X102.6 Y140.0
G0 X102.4 Y139.8
G0 X102.4 Y139.8
G0 X102.0 Y139.9
G0 X102.0 Y139.9
G0 X101.8 Y140.1
G0 X100.0 Y141.4
G0 X99.8 Y141.5
G0 X100.0 Y143.2

M3 S165
G0 F2000
G0 X100.0 Y143.2
M3 S148
G0 F2000
G0 X99.8 Y143.6
G0 X99.4 Y144.8
G0 X99.1 Y146.4
G0 X99.2 Y148.0
G0 X99.4 Y149.3
G0 X99.5 Y149.7
G0 X98.7 Y149.6
G0 X94.7 Y149.0
G0 X90.7 Y148.4
G0 X89.9 Y148.2
G0 X90.0 Y148.7
G0 X90.2 Y151.1
G0 X90.6 Y153.4
G0 X90.7 Y153.9
G0 X90.9 Y153.8
G0 X91.6 Y153.8
G0 X92.2 Y153.6
G0 X92.8 Y153.3
G0 X93.2 Y153.0
G0 X93.5 Y152.6
G0 X93.7 Y152.1
G0 X93.8 Y151.6
G0 X93.8 Y151.2
G0 X93.8 Y151.1
G0 X94.7 Y151.5
G0 X97.3 Y152.6
G0 X101.0 Y154.1
G0 X104.6 Y155.7
G0 X107.1 Y157.0
G0 X107.9 Y157.5
G0 X108.2 Y157.8
G0 X109.9 Y159.1
G0 X111.7 Y160.2
G0 X112.1 Y160.4
G0 X112.4 Y160.6
G0 X113.1 Y160.8
G0 X113.9 Y160.8
G0 X114.5 Y160.3
G0 X114.7 Y159.8
G0 X114.8 Y159.6
G0 X114.8 Y159.5
G0 X114.9 Y159.1
G0 X115.0 Y158.7
G0 X115.1 Y158.3
G0 X115.0 Y158.0
G0 X114.9 Y157.9
G0 X114.6 Y157.7
G0 X113.9 Y156.8
G0 X113.1 Y155.7
G0 X112.4 Y154.4
G0 X111.7 Y153.2
G0 X111.0 Y152.0
G0 X110.3 Y150.8
G0 X109.3 Y149.7
G0 X108.4 Y148.9
G0 X108.1 Y148.6
G0 X108.0 Y148.6
G0 X107.7 Y148.3
G0 X107.5 Y147.9
G0 X107.6 Y147.6
G0 X107.7 Y147.3
G0 X107.8 Y147.2
G0 X107.8 Y147.2
G0 X108.2 Y146.5
G0 X108.2 Y146.4
G0 X108.2 Y146.3
G0 X108.1 Y145.5
G0 X107.5 Y144.9
G0 X107.4 Y144.8
G0 X107.3 Y144.7
G0 X106.4 Y144.3
G0 X106.3 Y144.2
G0 X106.2 Y144.2
G0 X105.5 Y144.0
G0 X104.7 Y143.8
G0 X103.9 Y143.5
G0 X103.3 Y143.2
G0 X100.0 Y143.2

M3 S165
G0 F2000
G0 X106.9 Y146.5
M3 S148
G0 F2000
G0 X107.0 Y146.6
G0 X107.2 Y146.8
G0 X107.5 Y147.1
G0 X107.8 Y147.4
G0 X108.0 Y147.8
G0 X108.3 Y148.0
G0 X108.7 Y148.2
G0 X109.2 Y148.3
G0 X109.7 Y148.3
G0 X109.9 Y148.3
G0 X111.0 Y148.3
G0 X114.2 Y148.4
G0 X118.5 Y148.4
G0 X122.8 Y148.2
G0 X126.1 Y147.9
G0 X127.2 Y147.8
G0 X127.2 Y147.5
G0 X127.2 Y146.7
G0 X127.2 Y145.7
G0 X127.2 Y144.6
G0 X127.3 Y143.9
G0 X127.4 Y143.6
G0 X127.5 Y143.4
G0 X127.5 Y142.8
G0 X127.1 Y142.2
G0 X126.4 Y141.7
G0 X125.5 Y141.6
G0 X125.2 Y141.5
G0 X125.1 Y141.5
G0 X124.3 Y141.3
G0 X123.6 Y141.1
G0 X123.5 Y141.0
G0 X123.0 Y141.0
G0 X121.7 Y140.9
G0 X120.0 Y140.6
G0 X118.4 Y140.2
G0 X117.2 Y139.7
G0 X116.8 Y139.5
G0 X116.7 Y139.4
G0 X116.0 Y139.1
G0 X115.0 Y138.9
G0 X114.0 Y138.8
G0 X113.2 Y138.7
G0 X113.0 Y138.7
G0 X112.6 Y138.6
G0 X111.4 Y138.5
G0 X110.0 Y138.5
G0 X108.5 Y138.7
G0 X107.5 Y139.2
G0 X107.2 Y139.4
G0 X107.2 Y139.4
G0 X106.9 Y140.1
G0 X106.9 Y140.2
G0 X106.9 Y140.4
G0 X107.0 Y141.0
G0 X107.1 Y141.9
G0 X106.9 Y142.7
G0 X106.6 Y143.4
G0 X106.4 Y143.6
G0 X106.3 Y143.7
G0 X106.2 Y144.1
G0 X106.2 Y144.5
G0 X106.3 Y145.0
G0 X106.4 Y145.4
G0 X106.4 Y145.5
G0 X106.9 Y146.5

M3 S165
G0 F2000
G0 X236.9 Y147.1
M3 S148
G0 F2000
G0 X237.1 Y147.1
G0 X237.7 Y146.9
G0 X238.2 Y146.7
G0 X238.6 Y146.5
G0 X238.9 Y146.3
G0 X239.1 Y146.0
G0 X239.2 Y145.7
G0 X239.3 Y145.2
G0 X239.3 Y144.8
G0 X239.3 Y144.7
G0 X239.4 Y144.4
G0 X239.4 Y143.5
G0 X239.2 Y142.4
G0 X238.6 Y141.3
G0 X237.9 Y140.6
G0 X237.6 Y140.4
G0 X237.3 Y140.4
G0 X236.6 Y140.6
G0 X235.7 Y140.8
G0 X235.0 Y141.4
G0 X234.6 Y141.9
G0 X234.6 Y142.1
G0 X234.5 Y142.2
G0 X233.9 Y143.1
G0 X233.8 Y143.2
G0 X233.7 Y143.3
G0 X233.4 Y143.4
G0 X233.1 Y143.7
G0 X232.9 Y143.9
G0 X233.0 Y144.3
G0 X233.0 Y144.3
G0 X233.0 Y144.5
G0 X233.0 Y144.8
G0 X233.0 Y144.9
G0 X233.1 Y144.9
G0 X233.7 Y145.4
G0 X233.8 Y145.5
G0 X233.8 Y145.5
G0 X233.8 Y145.6
G0 X233.9 Y145.9
G0 X234.2 Y146.3
G0 X236.9 Y147.1

M3 S165
G0 F2000
G0 X415.9 Y148.3
M3 S148
G0 F2000
G0 X416.1 Y148.4
G0 X416.8 Y148.9
G0 X417.7 Y149.5
G0 X418.4 Y150.2
G0 X418.9 Y150.8
G0 X419.0 Y151.1
G0 X419.0 Y151.0
G0 X419.2 Y150.7
G0 X419.4 Y150.4
G0 X419.4 Y150.3
G0 X419.4 Y150.2
G0 X419.5 Y149.6
G0 X419.4 Y149.0
G0 X415.9 Y148.3

M3 S165
G0 F2000
G0 X642.4 Y151.1
M3 S148
G0 F2000
G0 X642.1 Y151.3
G0 X641.1 Y152.2
G0 X639.8 Y153.4
G0 X638.5 Y154.5
G0 X637.4 Y155.3
G0 X637.0 Y155.5
G0 X637.1 Y155.6
G0 X637.2 Y155.9
G0 X637.6 Y156.2
G0 X638.0 Y156.2
G0 X638.4 Y156.2
G0 X638.6 Y156.1
G0 X639.3 Y155.5
G0 X643.2 Y152.6
G0 X647.0 Y149.6
G0 X647.8 Y149.0
G0 X648.1 Y148.7
G0 X649.1 Y147.5
G0 X650.0 Y145.9
G0 X650.6 Y144.2
G0 X650.9 Y142.8
G0 X650.9 Y142.3
G0 X650.6 Y142.6
G0 X649.7 Y143.4
G0 X648.7 Y144.6
G0 X647.7 Y145.7
G0 X646.9 Y146.5
G0 X642.4 Y151.1

M3 S165
G0 F2000
G0 X216.4 Y153.7
M3 S148
G0 F2000
G0 X216.1 Y153.9
G0 X215.3 Y154.6
G0 X214.3 Y155.4
G0 X213.7 Y156.2
G0 X213.4 Y156.9
G0 X213.3 Y157.1
G0 X213.1 Y158.0
G0 X211.8 Y162.6
G0 X210.2 Y167.0
G0 X209.8 Y167.9
G0 X209.7 Y168.0
G0 X209.7 Y168.3
G0 X209.8 Y168.6
G0 X209.8 Y168.7
G0 X209.9 Y168.8
G0 X210.3 Y168.9
G0 X210.8 Y168.9
G0 X211.1 Y168.7
G0 X211.3 Y168.5
G0 X211.3 Y168.4
G0 X211.5 Y168.2
G0 X211.8 Y167.8
G0 X212.3 Y167.2
G0 X212.8 Y166.6
G0 X213.2 Y166.0
G0 X213.5 Y165.4
G0 X213.7 Y164.8
G0 X213.7 Y164.0
G0 X213.6 Y163.5
G0 X213.5 Y163.3
G0 X213.5 Y163.0
G0 X213.5 Y162.3
G0 X214.0 Y161.4
G0 X214.7 Y160.6
G0 X215.3 Y160.0
G0 X216.4 Y153.7

M3 S165
G0 F2000
G0 X416.7 Y154.4
M3 S148
G0 F2000
G0 X416.5 Y154.4
G0 X415.9 Y154.3
G0 X415.2 Y154.3
G0 X414.6 Y154.4
G0 X414.1 Y154.7
G0 X413.7 Y155.0
G0 X413.4 Y155.3
G0 X413.0 Y155.8
G0 X412.7 Y156.1
G0 X412.6 Y156.2
G0 X412.5 Y156.3
G0 X412.1 Y156.9
G0 X411.9 Y157.7
G0 X412.1 Y158.4
G0 X412.6 Y159.0
G0 X412.8 Y159.2
G0 X413.0 Y159.4
G0 X413.6 Y160.1
G0 X414.5 Y161.1
G0 X415.4 Y162.1
G0 X416.3 Y162.7
G0 X416.7 Y162.8
G0 X416.7 Y162.5
G0 X416.8 Y161.0
G0 X417.3 Y159.6
G0 X416.7 Y154.4

M3 S165
G0 F2000
G0 X466.4 Y154.4
M3 S148
G0 F2000
G0 X466.6 Y154.4
G0 X467.1 Y154.4
G0 X467.1 Y154.4
G0 X467.1 Y154.4
G0 X466.9 Y154.2
G0 X466.8 Y154.1
G0 X466.7 Y154.0
G0 X466.7 Y154.0
G0 X466.5 Y153.9
G0 X466.2 Y153.8
G0 X466.0 Y153.8
G0 X465.9 Y153.8
G0 X466.4 Y154.4

M3 S165
G0 F2000
G0 X501.6 Y155.0
M3 S148
G0 F2000
G0 X501.4 Y155.1
G0 X501.1 Y155.4
G0 X500.9 Y155.8
G0 X500.9 Y156.2
G0 X500.8 Y156.6
G0 X500.8 Y156.7
G0 X500.8 Y156.6
G0 X500.9 Y156.7
G0 X502.3 Y157.7

M3 S165
G0 F2000
G0 X85.4 Y155.5
M3 S148
G0 F2000
G0 X85.5 Y155.5
G0 X86.0 Y155.3
G0 X86.6 Y155.3
G0 X87.2 Y155.3
G0 X87.6 Y155.5
G0 X88.1 Y155.8
G0 X88.5 Y156.0
G0 X88.9 Y156.3
G0 X89.2 Y156.6
G0 X89.3 Y156.6
G0 X89.4 Y156.7
G0 X90.2 Y156.9
G0 X90.3 Y156.9
G0 X90.4 Y156.9
G0 X91.4 Y156.9
G0 X91.5 Y156.9
G0 X91.6 Y156.9
G0 X92.4 Y156.5
G0 X92.5 Y156.5
G0 X92.6 Y156.4
G0 X93.0 Y155.8
G0 X93.1 Y155.7
G0 X93.1 Y155.6
G0 X93.1 Y154.9
G0 X93.0 Y154.9
G0 X93.0 Y154.8
G0 X92.6 Y154.3
G0 X92.3 Y153.9
G0 X92.3 Y153.8
G0 X92.3 Y153.7
G0 X92.2 Y153.1
G0 X92.2 Y153.0
G0 X92.1 Y152.7
G0 X92.0 Y151.7
G0 X91.9 Y150.4
G0 X91.5 Y149.1
G0 X91.0 Y148.1
G0 X85.7 Y147.6

M3 S165
G0 F2000
G0 X663.4 Y155.6
M3 S148
G0 F2000
G0 X663.2 Y156.0
G0 X662.6 Y157.2
G0 X661.5 Y158.8
G0 X660.4 Y160.3
G0 X659.2 Y161.8
G0 X657.9 Y163.3
G0 X656.6 Y164.8
G0 X655.2 Y166.2
G0 X654.2 Y167.3
G0 X653.9 Y167.7
G0 X653.6 Y168.1
G0 X652.7 Y169.3
G0 X651.7 Y170.9
G0 X651.0 Y172.6
G0 X650.7 Y174.0
G0 X650.1 Y176.2

M3 S165
G0 F2000
G0 X638.6 Y156.1
M3 S148
G0 F2000
G0 X638.4 Y156.0
G0 X637.1 Y155.6
G0 X637.0 Y155.5
G0 X636.9 Y155.7
G0 X635.6 Y157.1
G0 X635.5 Y157.2
G0 X635.5 Y157.3
G0 X635.0 Y158.2
G0 X635.0 Y158.2
G0 X634.9 Y158.4
G0 X634.8 Y158.8
G0 X634.6 Y159.2
G0 X634.6 Y159.6
G0 X634.7 Y159.8
G0 X635.0 Y160.0
G0 X635.4 Y160.2
G0 X636.1 Y160.3
G0 X636.8 Y160.5
G0 X637.0 Y160.6
G0 X637.0 Y160.4
G0 X637.0 Y158.5
G0 X637.0 Y158.3
G0 X637.1 Y158.3
G0 X637.7 Y157.8
G0 X637.8 Y157.8
G0 X637.8 Y157.8
G0 X637.9 Y157.7
G0 X638.0 Y157.5
G0 X638.6 Y156.1

M3 S165
G0 F2000
G0 X88.5 Y157.2
M3 S148
G0 F2000
G0 X88.5 Y157.1
G0 X89.0 Y156.5
G0 X89.8 Y156.2
G0 X90.0 Y156.1
G0 X89.8 Y155.9
G0 X89.0 Y155.3
G0 X88.0 Y154.9
G0 X87.7 Y154.8
G0 X87.5 Y154.8
G0 X87.0 Y154.7
G0 X88.5 Y157.2

M3 S165
G0 F2000
G0 X503.8 Y157.6
M3 S148
G0 F2000
G0 X503.8 Y157.6
G0 X503.0 Y157.2
G0 X503.0 Y157.2
G0 X502.9 Y157.1
G0 X502.2 Y156.7
G0 X502.1 Y156.7
G0 X502.1 Y156.6
G0 X501.8 Y156.4
G0 X501.7 Y156.4
G0 X501.6 Y156.3
G0 X500.8 Y156.0
G0 X500.7 Y156.0
G0 X500.6 Y156.0
G0 X499.7 Y156.2
G0 X499.6 Y156.2
G0 X499.3 Y156.4
G0 X498.7 Y156.9
G0 X498.0 Y157.6
G0 X497.6 Y158.3
G0 X497.2 Y159.0
G0 X497.1 Y159.8
G0 X497.0 Y160.6
G0 X497.0 Y161.4
G0 X497.1 Y162.0
G0 X497.1 Y162.2
G0 X497.2 Y162.7
G0 X497.4 Y165.1
G0 X497.7 Y167.4
G0 X497.8 Y167.8
G0 X497.8 Y167.9
G0 X498.0 Y169.1
G0 X498.0 Y169.2
G0 X498.1 Y169.3
G0 X498.2 Y169.7
G0 X498.4 Y170.1
G0 X498.6 Y170.4
G0 X498.9 Y170.5
G0 X499.3 Y170.5
G0 X499.7 Y170.3
G0 X501.6 Y169.0

M3 S165
G0 F2000
G0 X107.5 Y157.8
M3 S148
G0 F2000
G0 X107.6 Y157.7
G0 X108.3 Y157.2
G0 X108.3 Y157.2
G0 X108.2 Y156.9
G0 X107.5 Y156.3
G0 X106.6 Y155.5
G0 X105.6 Y154.9
G0 X104.4 Y154.3
G0 X103.2 Y153.7
G0 X102.0 Y153.2
G0 X100.8 Y152.7
G0 X99.9 Y152.3
G0 X99.7 Y152.1
G0 X99.3 Y152.0
G0 X97.7 Y151.3
G0 X96.0 Y150.7
G0 X95.7 Y150.6
G0 X95.5 Y150.6
G0 X95.1 Y150.5
G0 X94.6 Y150.5
G0 X94.2 Y150.7
G0 X93.9 Y150.9
G0 X93.8 Y151.1
G0 X94.0 Y151.2
G0 X94.4 Y151.6
G0 X95.0 Y152.2
G0 X95.4 Y152.8
G0 X95.6 Y153.3
G0 X95.6 Y153.5
G0 X95.7 Y153.7
G0 X96.0 Y154.4
G0 X96.8 Y155.1
G0 X97.8 Y155.5
G0 X98.7 Y155.7
G0 X107.5 Y157.8

M3 S165
G0 F2000
G0 X479.4 Y158.9
M3 S148
G0 F2000
G0 X479.4 Y158.7
G0 X479.6 Y158.2
G0 X479.7 Y157.5
G0 X479.9 Y156.8
G0 X480.1 Y156.1
G0 X480.5 Y155.5
G0 X480.9 Y154.9
G0 X481.6 Y154.3
G0 X482.2 Y154.0
G0 X482.4 Y153.9
G0 X482.5 Y153.8
G0 X482.5 Y153.3
G0 X482.5 Y153.3
G0 X482.4 Y153.2
G0 X482.0 Y152.9
G0 X481.5 Y152.7
G0 X480.9 Y152.7
G0 X480.5 Y152.9
G0 X480.4 Y153.0
G0 X480.2 Y153.2
G0 X479.7 Y153.7
G0 X479.0 Y154.3
G0 X478.4 Y155.0
G0 X477.9 Y155.7
G0 X477.5 Y156.4
G0 X477.2 Y157.2
G0 X479.4 Y158.9

M3 S165
G0 F2000
G0 X398.3 Y160.6
M3 S148
G0 F2000
G0 X398.2 Y160.5
G0 X397.6 Y159.5
G0 X397.5 Y159.4
G0 X397.4 Y159.5
G0 X397.1 Y159.7
G0 X396.7 Y159.9
G0 X396.5 Y160.2
G0 X396.6 Y160.5
G0 X398.3 Y160.6

M3 S165
G0 F2000
G0 X399.1 Y160.6
M3 S148
G0 F2000
G0 X399.1 Y160.5
G0 X399.1 Y160.2
G0 X399.2 Y160.0
G0 X399.4 Y159.9
G0 X399.6 Y159.9
G0 X399.9 Y159.9
G0 X400.3 Y159.9
G0 X400.6 Y159.9
G0 X400.8 Y159.9
G0 X400.8 Y159.8
G0 X400.8 Y159.7
G0 X400.6 Y159.1
G0 X400.0 Y158.7
G0 X399.2 Y158.5
G0 X398.5 Y158.3
G0 X398.3 Y158.3
G0 X398.2 Y158.4
G0 X397.6 Y159.3
G0 X397.5 Y159.4
G0 X397.5 Y159.5
G0 X397.4 Y159.9
G0 X399.1 Y160.6

M3 S165
G0 F2000
G0 X514.9 Y161.3
M3 S148
G0 F2000
G0 X515.2 Y161.3
G0 X516.0 Y161.3
G0 X517.0 Y161.4
G0 X517.9 Y161.7
G0 X518.6 Y161.9
G0 X518.8 Y162.1
G0 X519.4 Y162.2
G0 X521.0 Y162.8
G0 X523.2 Y163.6
G0 X525.5 Y164.4
G0 X527.2 Y164.8
G0 X527.8 Y165.0
G0 X528.0 Y165.0
G0 X528.6 Y165.2
G0 X529.5 Y165.3
G0 X530.4 Y165.3
G0 X531.1 Y165.2
G0 X531.3 Y165.1
G0 X531.4 Y165.0
G0 X532.1 Y164.5
G0 X532.2 Y164.5
G0 X532.1 Y164.3
G0 X531.5 Y163.7
G0 X531.0 Y162.9
G0 X530.9 Y162.8
G0 X530.8 Y162.6
G0 X530.5 Y162.2
G0 X529.9 Y161.7
G0 X529.1 Y161.5
G0 X528.4 Y161.4
G0 X528.1 Y161.4
G0 X527.9 Y161.4
G0 X527.1 Y161.3
G0 X526.2 Y161.1
G0 X525.4 Y160.9
G0 X524.8 Y160.5
G0 X524.3 Y160.0
G0 X524.0 Y159.5
G0 X523.7 Y158.8
G0 X523.6 Y158.3
G0 X523.6 Y158.1
G0 X523.6 Y157.9
G0 X523.6 Y157.0
G0 X523.6 Y156.1
G0 X523.5 Y155.9
G0 X523.5 Y155.7
G0 X523.2 Y154.7
G0 X522.8 Y153.8
G0 X522.7 Y153.6
G0 X522.4 Y153.5
G0 X521.4 Y153.4
G0 X520.4 Y153.6
G0 X519.4 Y154.0
G0 X518.7 Y154.3
G0 X518.4 Y154.4
G0 X518.3 Y154.5
G0 X517.7 Y155.0
G0 X517.3 Y155.6
G0 X517.3 Y155.8
G0 X517.2 Y156.0
G0 X516.9 Y156.7
G0 X516.5 Y157.4
G0 X516.0 Y157.9
G0 X515.4 Y158.2
G0 X514.7 Y158.4
G0 X513.9 Y158.5
G0 X512.9 Y158.3
G0 X512.0 Y158.1
G0 X511.7 Y158.0
G0 X510.9 Y157.8
G0 X500.9 Y155.2

M3 S165
G0 F2000
G0 X627.9 Y162.2
M3 S148
G0 F2000
G0 X628.0 Y162.3
G0 X628.2 Y162.3
G0 X628.6 Y162.4
G0 X629.0 Y162.4
G0 X629.2 Y162.5
G0 X629.2 Y162.6
G0 X629.4 Y162.8
G0 X630.2 Y163.4
G0 X631.4 Y164.0
G0 X632.7 Y164.5
G0 X633.7 Y164.9
G0 X634.0 Y165.1
G0 X634.2 Y165.2
G0 X634.8 Y165.7
G0 X635.1 Y166.4
G0 X634.8 Y167.1
G0 X634.2 Y167.7
G0 X634.0 Y167.8
G0 X633.9 Y168.1
G0 X633.9 Y168.7
G0 X634.0 Y169.4
G0 X634.2 Y169.9
G0 X634.5 Y170.2
G0 X635.0 Y170.3
G0 X635.7 Y170.4
G0 X636.6 Y170.3
G0 X637.5 Y170.1
G0 X637.8 Y170.1
G0 X637.6 Y169.9
G0 X637.2 Y169.5
G0 X637.0 Y168.8
G0 X636.9 Y168.2
G0 X636.9 Y167.6
G0 X637.1 Y166.9
G0 X637.3 Y166.3
G0 X637.6 Y165.7
G0 X637.8 Y165.2
G0 X637.8 Y165.0
G0 X637.8 Y164.9
G0 X637.6 Y164.4
G0 X637.6 Y163.8
G0 X637.9 Y163.3
G0 X638.4 Y162.9
G0 X638.5 Y162.8
G0 X638.6 Y162.7
G0 X638.7 Y162.5
G0 X638.6 Y162.3
G0 X638.4 Y162.1
G0 X638.1 Y162.0
G0 X638.0 Y162.0
G0 X637.9 Y161.9
G0 X637.6 Y161.7
G0 X637.3 Y161.4
G0 X637.1 Y161.0
G0 X637.0 Y160.7
G0 X637.0 Y160.6
G0 X636.9 Y160.5
G0 X636.4 Y160.2
G0 X636.1 Y159.9
G0 X636.0 Y159.4
G0 X636.0 Y158.9
G0 X636.1 Y158.5
G0 X636.1 Y158.0
G0 X635.9 Y157.6
G0 X635.6 Y157.3
G0 X635.5 Y157.2
G0 X635.1 Y157.2
G0 X634.1 Y157.3
G0 X632.9 Y157.6
G0 X627.9 Y162.2

M3 S165
G0 F2000
G0 X627.9 Y162.2
M3 S148
G0 F2000
G0 X627.6 Y162.6
G0 X627.2 Y163.8
G0 X627.2 Y165.4
G0 X627.6 Y166.9
G0 X628.2 Y168.1
G0 X628.4 Y168.4
G0 X628.6 Y168.8
G0 X629.4 Y169.9
G0 X630.5 Y171.3
G0 X631.3 Y172.7
G0 X631.8 Y173.9
G0 X631.8 Y174.3
G0 X631.8 Y174.4
G0 X632.0 Y174.8
G0 X632.4 Y175.2
G0 X632.9 Y175.4
G0 X633.4 Y175.6
G0 X633.5 Y175.7
G0 X633.8 Y175.8
G0 X636.7 Y176.7
G0 X637.0 Y176.8
G0 X637.2 Y176.8
G0 X637.6 Y176.8
G0 X637.8 Y176.8
G0 X637.9 Y176.7
G0 X638.5 Y176.3
G0 X638.5 Y176.2
G0 X638.6 Y176.1
G0 X639.3 Y174.7
G0 X639.3 Y174.6
G0 X639.4 Y174.5
G0 X640.0 Y174.0
G0 X640.1 Y174.0
G0 X640.1 Y174.0
G0 X640.1 Y173.9
G0 X640.8 Y173.5
G0 X640.9 Y173.4
G0 X640.9 Y173.2
G0 X640.9 Y172.4
G0 X641.2 Y171.4
G0 X641.7 Y170.4
G0 X642.2 Y169.7
G0 X642.4 Y169.5
G0 X642.4 Y169.5
G0 X642.4 Y169.4
G0 X642.5 Y168.8
G0 X642.8 Y168.0
G0 X642.8 Y167.8
G0 X642.6 Y167.9
G0 X642.1 Y168.1
G0 X641.5 Y168.5
G0 X640.9 Y168.8
G0 X640.3 Y169.2
G0 X639.7 Y169.5
G0 X639.1 Y169.8
G0 X638.5 Y170.0
G0 X638.0 Y170.1
G0 X637.8 Y170.1
G0 X637.6 Y170.1
G0 X636.9 Y170.1
G0 X636.2 Y169.9
G0 X635.8 Y169.6
G0 X635.5 Y169.2
G0 X635.4 Y168.8
G0 X635.3 Y168.3
G0 X635.2 Y167.9
G0 X635.2 Y167.5
G0 X635.1 Y167.4
G0 X635.1 Y167.2
G0 X635.1 Y166.2
G0 X635.1 Y165.1
G0 X635.1 Y164.9
G0 X634.9 Y164.7
G0 X634.3 Y163.9
G0 X633.5 Y163.1
G0 X627.9 Y162.2

M3 S165
G0 F2000
G0 X117.6 Y162.8
M3 S148
G0 F2000
G0 X117.7 Y162.9
G0 X119.0 Y163.8
G0 X119.1 Y163.8
G0 X119.3 Y163.9
G0 X119.9 Y164.2
G0 X120.6 Y164.5
G0 X121.0 Y164.6
G0 X121.4 Y164.6
G0 X121.7 Y164.4
G0 X121.8 Y164.0
G0 X117.6 Y162.8

M3 S165
G0 F2000
G0 X147.3 Y162.8
M3 S148
G0 F2000
G0 X147.3 Y162.8
G0 X146.7 Y162.8
G0 X146.6 Y162.8
G0 X146.5 Y162.8
G0 X146.3 Y163.1
G0 X146.2 Y163.4
G0 X146.2 Y163.5
G0 X146.2 Y163.4
G0 X146.1 Y163.1
G0 X145.9 Y162.8
G0 X145.8 Y162.8
G0 X133.7 Y162.9
G0 X133.2 Y163.0
G0 X131.5 Y163.3
G0 X129.2 Y163.4
G0 X126.8 Y163.4
G0 X124.8 Y163.6
G0 X124.2 Y163.8
G0 X124.6 Y163.8
G0 X125.9 Y164.0
G0 X127.3 Y164.2
G0 X128.7 Y164.2
G0 X129.7 Y164.2
G0 X130.0 Y164.2
G0 X131.5 Y164.2
G0 X145.7 Y164.4
G0 X147.1 Y164.4
G0 X147.4 Y164.4
G0 X148.1 Y164.4
G0 X149.2 Y164.4
G0 X150.2 Y164.3
G0 X150.9 Y164.0
G0 X151.2 Y163.9
G0 X151.1 Y163.8
G0 X150.9 Y163.5
G0 X150.5 Y163.3
G0 X150.1 Y163.1
G0 X149.8 Y162.9
G0 X149.7 Y162.8
G0 X147.3 Y162.8

M3 S165
G0 F2000
G0 X149.7 Y162.8
M3 S148
G0 F2000
G0 X149.8 Y162.9
G0 X151.0 Y163.8
G0 X151.2 Y163.9
G0 X151.2 Y163.9
G0 X151.8 Y163.8
G0 X151.8 Y163.8
G0 X151.8 Y163.8
G0 X151.9 Y163.4
G0 X149.7 Y162.8

M3 S165
G0 F2000
G0 X638.5 Y162.8
M3 S148
G0 F2000
G0 X638.4 Y162.9
G0 X637.8 Y163.1
G0 X637.3 Y163.3
G0 X637.0 Y163.5
G0 X636.8 Y163.7
G0 X636.8 Y163.9
G0 X637.0 Y164.2
G0 X638.5 Y162.8

M3 S165
G0 F2000
G0 X479.4 Y163.3
M3 S148
G0 F2000
G0 X479.4 Y163.1
G0 X479.4 Y162.5
G0 X479.4 Y162.3
G0 X479.3 Y162.3
G0 X479.0 Y162.4
G0 X478.7 Y162.6
G0 X478.5 Y162.9
G0 X478.5 Y163.1
G0 X479.4 Y163.3

M3 S165
G0 F2000
G0 X475.6 Y164.5
M3 S148
G0 F2000
G0 X475.6 Y164.5
G0 X475.6 Y165.0
G0 X475.6 Y165.0
G0 X475.6 Y165.0
G0 X476.0 Y165.0
G0 X476.2 Y165.0
G0 X475.6 Y164.5

M3 S165
G0 F2000
G0 X115.2 Y166.1
M3 S148
G0 F2000
G0 X115.0 Y165.9
G0 X114.4 Y165.2
G0 X113.3 Y164.4
G0 X112.0 Y163.8
G0 X111.0 Y163.4
G0 X110.6 Y163.4
G0 X110.6 Y163.5
G0 X110.8 Y164.0
G0 X111.2 Y164.6
G0 X115.2 Y166.1

M3 S165
G0 F2000
G0 X497.8 Y167.8
M3 S148
G0 F2000
G0 X497.9 Y167.3
G0 X498.4 Y164.6
G0 X498.7 Y161.8
G0 X498.7 Y161.3
G0 X498.7 Y161.0
G0 X498.9 Y160.0
G0 X499.2 Y158.8
G0 X499.9 Y157.7
G0 X500.6 Y156.9
G0 X500.8 Y156.7
G0 X501.0 Y156.6
G0 X501.4 Y156.3
G0 X501.5 Y155.9
G0 X501.5 Y155.4
G0 X501.5 Y155.1
G0 X501.6 Y155.0
G0 X501.6 Y155.0
G0 X501.5 Y154.5
G0 X501.5 Y154.4
G0 X501.2 Y154.3
G0 X499.9 Y153.4
G0 X498.8 Y152.4
G0 X498.5 Y152.2
G0 X498.5 Y152.2
G0 X497.8 Y151.7
G0 X497.7 Y151.6
G0 X497.7 Y151.7
G0 X497.6 Y151.8
G0 X496.4 Y153.2
G0 X496.3 Y153.3
G0 X496.5 Y153.4
G0 X497.2 Y153.7
G0 X497.9 Y153.9
G0 X498.3 Y154.2
G0 X498.4 Y154.4
G0 X498.4 Y154.7
G0 X498.1 Y155.0
G0 X497.6 Y155.3
G0 X497.0 Y155.6
G0 X496.8 Y155.7
G0 X496.7 Y155.8
G0 X496.2 Y156.1
G0 X495.9 Y156.6
G0 X495.6 Y157.1
G0 X495.6 Y157.5
G0 X495.5 Y157.6
G0 X495.5 Y157.9
G0 X495.4 Y159.0
G0 X495.3 Y160.2
G0 X497.8 Y167.8

M3 S165
G0 F2000
G0 X541.4 Y167.8
M3 S148
G0 F2000
G0 X541.5 Y167.8
G0 X542.1 Y167.3
G0 X542.1 Y167.3
G0 X542.3 Y167.1
G0 X542.8 Y166.7
G0 X543.5 Y166.0
G0 X544.1 Y165.4
G0 X544.7 Y164.7
G0 X545.4 Y164.2
G0 X546.2 Y163.6
G0 X547.1 Y163.2
G0 X547.9 Y162.9
G0 X548.2 Y162.9
G0 X548.3 Y162.9
G0 X548.5 Y162.6
G0 X548.6 Y162.2
G0 X548.6 Y162.2
G0 X548.7 Y162.1
G0 X548.6 Y161.9
G0 X548.4 Y161.7
G0 X548.1 Y161.5
G0 X547.8 Y161.4
G0 X547.7 Y161.4
G0 X547.6 Y161.4
G0 X546.8 Y161.4
G0 X546.0 Y161.5
G0 X545.9 Y161.5
G0 X545.5 Y161.6
G0 X543.4 Y162.2
G0 X541.4 Y162.8
G0 X541.0 Y163.0
G0 X540.7 Y163.1
G0 X539.9 Y163.5
G0 X539.1 Y164.0
G0 X538.6 Y164.6
G0 X538.4 Y165.1
G0 X538.5 Y165.7
G0 X541.4 Y167.8

M3 S165
G0 F2000
G0 X634.0 Y167.8
M3 S148
G0 F2000
G0 X634.2 Y167.8
G0 X634.9 Y167.8
G0 X635.5 Y167.4
G0 X635.9 Y166.9
G0 X636.0 Y166.5
G0 X636.0 Y166.3
G0 X636.0 Y166.2
G0 X635.8 Y165.8
G0 X634.0 Y167.8

M3 S165
G0 F2000
G0 X157.3 Y168.3
M3 S148
G0 F2000
G0 X157.2 Y168.4
G0 X156.9 Y168.7
G0 X156.8 Y169.1
G0 X156.8 Y169.4
G0 X156.9 Y169.7
G0 X157.1 Y170.0
G0 X157.4 Y170.2
G0 X157.8 Y170.5
G0 X158.0 Y170.6
G0 X158.1 Y170.6
G0 X158.2 Y170.7
G0 X158.5 Y170.8
G0 X158.8 Y170.8
G0 X159.0 Y170.7
G0 X159.2 Y170.5
G0 X159.3 Y170.3
G0 X157.3 Y168.3

M3 S165
G0 F2000
G0 X452.6 Y168.4
M3 S148
G0 F2000
G0 X452.2 Y168.5
G0 X451.1 Y169.1
G0 X449.9 Y170.1
G0 X448.9 Y171.2
G0 X448.2 Y172.0
G0 X448.0 Y172.3
G0 X448.3 Y172.3
G0 X449.1 Y172.1
G0 X449.9 Y171.8
G0 X452.6 Y168.4

M3 S165
G0 F2000
G0 X531.5 Y168.4
M3 S148
G0 F2000
G0 X531.6 Y168.2
G0 X532.0 Y167.6
G0 X532.2 Y166.7
G0 X532.2 Y165.9
G0 X532.3 Y165.2
G0 X532.3 Y165.0
G0 X532.3 Y165.0
G0 X532.2 Y164.5
G0 X532.2 Y164.5
G0 X532.1 Y164.5
G0 X531.3 Y164.6
G0 X531.2 Y164.6
G0 X531.1 Y164.7
G0 X530.7 Y165.1
G0 X530.3 Y165.6
G0 X531.5 Y168.4

M3 S165
G0 F2000
G0 X472.5 Y169.5
M3 S148
G0 F2000
G0 X472.5 Y169.4
G0 X472.5 Y169.1
G0 X472.5 Y169.0
G0 X472.4 Y168.9
G0 X471.6 Y168.8
G0 X470.9 Y168.9
G0 X470.8 Y169.0
G0 X470.7 Y169.1
G0 X470.4 Y169.2
G0 X470.2 Y169.5
G0 X470.1 Y169.8
G0 X470.3 Y170.1
G0 X470.3 Y170.1
G0 X470.4 Y170.2
G0 X470.6 Y170.3
G0 X472.5 Y169.5

M3 S165
G0 F2000
G0 X400.8 Y170.2
M3 S148
G0 F2000
G0 X400.8 Y170.2
G0 X401.2 Y170.3
G0 X401.3 Y170.3
G0 X401.3 Y170.3
G0 X401.4 Y170.2
G0 X401.4 Y170.1
G0 X401.4 Y170.1
G0 X400.8 Y170.2

M3 S165
G0 F2000
G0 X501.2 Y171.2
M3 S148
G0 F2000
G0 X501.2 Y171.3
G0 X501.0 Y171.7
G0 X500.6 Y172.3
G0 X500.2 Y172.8
G0 X500.1 Y173.3
G0 X500.1 Y173.4
G0 X500.1 Y173.5
G0 X500.2 Y173.6
G0 X500.4 Y173.8
G0 X500.6 Y173.9
G0 X500.8 Y174.0
G0 X500.8 Y174.0
G0 X501.0 Y174.0
G0 X501.6 Y174.0
G0 X502.3 Y174.0
G0 X505.8 Y175.7

M3 S165
G0 F2000
G0 X410.2 Y172.6
M3 S148
G0 F2000
G0 X410.1 Y172.7
G0 X409.9 Y172.7
G0 X409.6 Y172.8
G0 X409.6 Y172.8
G0 X409.6 Y172.9
G0 X409.6 Y173.2
G0 X410.0 Y173.3
G0 X410.1 Y173.3
G0 X410.1 Y173.3
G0 X410.2 Y172.6

M3 S165
G0 F2000
G0 X536.8 Y172.6
M3 S148
G0 F2000
G0 X536.8 Y172.4
G0 X536.6 Y172.1
G0 X536.1 Y171.8
G0 X535.5 Y171.7
G0 X535.0 Y171.6
G0 X534.9 Y171.5
G0 X534.9 Y171.5
G0 X534.3 Y171.3
G0 X534.2 Y171.3
G0 X534.2 Y171.3
G0 X533.8 Y171.2
G0 X533.7 Y171.2
G0 X533.5 Y171.1
G0 X532.4 Y170.5
G0 X531.6 Y169.7
G0 X531.4 Y169.5
G0 X531.5 Y168.4
G0 X531.5 Y168.2
G0 X531.5 Y167.4
G0 X531.5 Y166.5
G0 X531.5 Y165.5
G0 X531.3 Y164.8
G0 X531.2 Y164.6
G0 X530.8 Y164.4
G0 X529.6 Y164.0
G0 X528.0 Y163.3
G0 X526.3 Y162.8
G0 X524.9 Y162.5
G0 X520.0 Y160.5

M3 S165
G0 F2000
G0 X501.2 Y173.2
M3 S148
G0 F2000
G0 X501.1 Y173.3
G0 X500.6 Y173.8
G0 X500.6 Y173.9
G0 X500.6 Y174.0
G0 X500.6 Y174.3
G0 X500.7 Y174.6
G0 X500.7 Y174.7
G0 X500.7 Y174.8
G0 X500.7 Y175.0
G0 X500.8 Y176.2

M3 S165
G0 F2000
G0 X557.5 Y173.9
M3 S148
G0 F2000
G0 X557.1 Y173.9
G0 X553.2 Y174.0
G0 X552.8 Y174.0
G0 X552.7 Y174.2
G0 X552.4 Y174.7
G0 X552.4 Y175.3
G0 X552.5 Y175.8
G0 X552.9 Y176.1
G0 X553.4 Y176.4
G0 X554.1 Y176.6
G0 X554.8 Y176.8
G0 X555.3 Y177.0
G0 X555.4 Y177.1
G0 X555.6 Y177.1
G0 X556.1 Y177.2
G0 X556.9 Y177.3
G0 X557.6 Y177.4
G0 X558.4 Y177.5
G0 X559.1 Y177.6
G0 X559.8 Y177.8
G0 X560.5 Y178.0
G0 X561.0 Y178.3
G0 X561.1 Y178.4
G0 X561.3 Y178.5
G0 X562.7 Y179.0
G0 X562.8 Y179.0
G0 X562.9 Y179.1
G0 X563.2 Y179.2
G0 X563.2 Y179.2
G0 X563.2 Y179.2
G0 X563.4 Y179.1
G0 X563.4 Y179.1
G0 X563.7 Y179.0
G0 X563.8 Y179.0
G0 X564.3 Y178.6
G0 X564.4 Y178.5
G0 X569.7 Y178.4
G0 X569.8 Y178.3
G0 X570.2 Y177.9
G0 X570.5 Y177.4
G0 X570.2 Y177.0
G0 X569.5 Y176.7
G0 X569.2 Y176.6
G0 X568.8 Y176.5
G0 X566.8 Y176.3
G0 X564.8 Y176.2
G0 X564.3 Y176.2
G0 X564.1 Y176.2
G0 X563.2 Y176.2
G0 X562.1 Y176.0
G0 X561.2 Y175.7
G0 X560.6 Y175.1
G0 X557.5 Y173.9

M3 S165
G0 F2000
G0 X500.8 Y174.0
M3 S148
G0 F2000
G0 X500.8 Y174.0
G0 X500.1 Y173.5
G0 X500.1 Y173.4
G0 X500.1 Y173.5
G0 X500.1 Y173.9
G0 X500.2 Y174.0
G0 X500.8 Y174.0

M3 S165
G0 F2000
G0 X543.9 Y174.4
M3 S148
G0 F2000
G0 X544.1 Y174.3
G0 X544.6 Y174.1
G0 X545.2 Y173.7
G0 X545.7 Y173.2
G0 X545.8 Y172.7
G0 X545.8 Y172.5
G0 X545.5 Y172.3
G0 X544.7 Y171.6
G0 X543.5 Y170.9
G0 X535.1 Y170.9

M3 S165
G0 F2000
G0 X481.7 Y174.6
M3 S148
G0 F2000
G0 X481.5 Y174.6
G0 X481.0 Y174.9
G0 X480.6 Y175.4
G0 X480.3 Y175.8
G0 X480.2 Y176.3
G0 X480.2 Y176.9
G0 X480.2 Y177.4
G0 X480.2 Y177.9
G0 X480.2 Y178.3
G0 X480.2 Y178.5
G0 X480.4 Y178.4
G0 X480.8 Y178.1
G0 X481.2 Y177.6
G0 X481.7 Y174.6

M3 S165
G0 F2000
G0 X645.5 Y175.7
M3 S148
G0 F2000
G0 X645.1 Y175.8
G0 X644.4 Y176.3
G0 X643.5 Y177.1
G0 X642.9 Y178.1
G0 X642.6 Y178.9
G0 X642.5 Y179.2
G0 X645.5 Y175.7

M3 S165
G0 F2000
G0 X500.7 Y175.8
M3 S148
G0 F2000
G0 X500.7 Y175.7
G0 X500.7 Y175.0
G0 X500.7 Y175.0
G0 X500.6 Y175.0
G0 X500.5 Y175.1
G0 X500.2 Y175.2
G0 X500.7 Y175.8

M3 S165
G0 F2000
G0 X651.8 Y175.9
M3 S148
G0 F2000
G0 X651.9 Y175.8
G0 X652.5 Y174.6
G0 X652.5 Y174.4
G0 X652.7 Y173.9
G0 X653.2 Y172.5
G0 X654.1 Y170.8
G0 X662.3 Y161.1

M3 S165
G0 F2000
G0 X125.5 Y176.0
M3 S148
G0 F2000
G0 X125.5 Y176.1
G0 X125.4 Y176.3
G0 X125.4 Y176.4
G0 X125.4 Y176.5
G0 X125.5 Y176.5
G0 X125.8 Y176.7
G0 X126.2 Y176.6
G0 X126.2 Y176.5
G0 X126.2 Y176.5
G0 X125.5 Y176.0

M3 S165
G0 F2000
G0 X342.4 Y176.3
M3 S148
G0 F2000
G0 X342.2 Y176.4
G0 X342.0 Y176.6
G0 X342.0 Y176.9
G0 X342.0 Y177.0
G0 X342.1 Y177.0
G0 X342.3 Y177.1
G0 X342.5 Y177.2
G0 X342.6 Y177.2
G0 X342.6 Y177.2
G0 X342.4 Y176.3

M3 S165
G0 F2000
G0 X507.0 Y177.3
M3 S148
G0 F2000
G0 X506.8 Y177.4
G0 X506.3 Y177.7
G0 X505.6 Y178.0
G0 X504.9 Y178.1
G0 X504.1 Y177.8
G0 X503.9 Y177.7
G0 X503.7 Y177.6
G0 X502.4 Y176.9
G0 X501.1 Y176.3
G0 X500.8 Y176.2
G0 X500.8 Y176.3
G0 X500.1 Y176.8
G0 X500.0 Y176.9
G0 X500.0 Y177.0
G0 X499.9 Y177.2
G0 X500.1 Y177.6
G0 X500.4 Y177.8
G0 X500.6 Y178.0
G0 X500.6 Y178.1
G0 X500.7 Y178.2
G0 X501.0 Y178.4
G0 X501.4 Y178.7
G0 X501.8 Y179.0
G0 X502.1 Y179.3
G0 X502.1 Y179.4
G0 X502.2 Y179.4
G0 X502.8 Y179.7
G0 X502.9 Y179.7
G0 X503.0 Y179.8
G0 X503.7 Y179.9
G0 X503.7 Y180.0
G0 X503.8 Y180.2
G0 X503.9 Y180.8
G0 X504.0 Y181.6
G0 X504.4 Y182.3
G0 X505.1 Y182.8
G0 X505.3 Y182.9
G0 X505.5 Y183.0
G0 X505.6 Y182.9
G0 X505.8 Y182.6
G0 X506.1 Y182.3
G0 X506.1 Y182.3
G0 X506.0 Y182.2
G0 X506.0 Y182.1
G0 X506.2 Y181.8
G0 X506.2 Y181.8
G0 X506.2 Y181.8
G0 X506.9 Y180.5

M3 S165
G0 F2000
G0 X409.0 Y179.0
M3 S148
G0 F2000
G0 X409.0 Y179.0
G0 X408.3 Y178.5
G0 X408.2 Y178.5
G0 X408.2 Y178.5
G0 X408.1 Y178.7
G0 X408.1 Y178.9
G0 X409.0 Y179.0

M3 S165
G0 F2000
G0 X556.6 Y179.1
M3 S148
G0 F2000
G0 X556.7 Y179.0
G0 X557.0 Y178.8
G0 X557.5 Y178.5
G0 X558.1 Y178.4
G0 X558.7 Y178.4
G0 X559.3 Y178.4
G0 X559.9 Y178.5
G0 X560.6 Y178.5
G0 X561.0 Y178.4
G0 X561.1 Y178.4
G0 X561.2 Y178.4
G0 X561.6 Y178.1
G0 X562.1 Y177.8
G0 X562.3 Y177.7
G0 X561.7 Y177.6
G0 X559.1 Y176.7
G0 X556.5 Y175.9
G0 X556.0 Y175.8
G0 X555.8 Y175.7
G0 X555.1 Y175.5
G0 X554.2 Y175.1
G0 X553.5 Y174.6
G0 X553.0 Y174.2
G0 X552.8 Y174.0
G0 X548.6 Y173.7

M3 S165
G0 F2000
G0 X503.7 Y180.0
M3 S148
G0 F2000
G0 X503.8 Y179.9
G0 X503.8 Y179.8
G0 X503.6 Y179.2
G0 X503.3 Y178.6
G0 X503.2 Y178.5
G0 X503.0 Y178.4
G0 X501.3 Y177.9
G0 X501.1 Y177.8
G0 X501.0 Y177.8
G0 X500.5 Y177.7
G0 X500.0 Y177.8
G0 X499.9 Y177.9
G0 X500.0 Y178.1
G0 X500.4 Y178.9
G0 X500.8 Y179.8
G0 X500.9 Y179.9
G0 X501.0 Y180.1
G0 X501.2 Y180.3
G0 X501.4 Y180.6
G0 X503.7 Y180.0

M3 S165
G0 F2000
G0 X506.4 Y180.3
M3 S148
G0 F2000
G0 X506.3 Y180.4
G0 X505.9 Y180.8
G0 X505.6 Y181.1
G0 X505.5 Y181.2
G0 X505.5 Y181.3
G0 X505.3 Y181.9
G0 X505.3 Y182.0
G0 X505.4 Y182.0
G0 X505.8 Y182.6
G0 X505.8 Y182.7
G0 X506.0 Y182.8
G0 X506.5 Y183.4
G0 X506.9 Y184.2
G0 X507.2 Y185.0
G0 X507.6 Y185.6
G0 X507.7 Y185.8
G0 X507.9 Y185.8
G0 X508.3 Y185.9
G0 X508.6 Y186.1
G0 X508.8 Y186.4
G0 X508.9 Y186.7
G0 X508.9 Y187.1
G0 X508.9 Y187.4
G0 X510.0 Y188.6

M3 S165
G0 F2000
G0 X560.5 Y181.2
M3 S148
G0 F2000
G0 X560.4 Y181.3
G0 X560.6 Y181.2
G0 X561.2 Y181.0
G0 X561.9 Y181.2
G0 X562.0 Y181.2
G0 X562.0 Y181.3
G0 X562.5 Y181.3
G0 X562.6 Y181.3
G0 X562.5 Y181.2
G0 X562.6 Y180.7
G0 X562.9 Y180.2
G0 X563.2 Y179.6
G0 X563.4 Y179.2
G0 X559.5 Y179.7

M3 S165
G0 F2000
G0 X560.5 Y182.7
M3 S148
G0 F2000
G0 X560.6 Y182.6
G0 X561.0 Y182.1
G0 X561.3 Y181.7
G0 X561.3 Y181.6
G0 X561.3 Y181.4
G0 X561.3 Y181.1
G0 X561.6 Y180.7
G0 X562.0 Y180.4
G0 X562.5 Y180.1
G0 X563.0 Y179.8
G0 X563.3 Y179.4
G0 X563.5 Y179.0
G0 X563.5 Y178.6
G0 X561.5 Y177.7

M3 S165
G0 F2000
G0 X406.5 Y184.2
M3 S148
G0 F2000
G0 X406.7 Y184.1
G0 X407.1 Y183.7
G0 X407.4 Y183.1
G0 X407.6 Y182.4
G0 X407.7 Y181.9
G0 X407.8 Y181.8
G0 X407.8 Y181.7
G0 X407.8 Y181.4
G0 X407.6 Y181.1
G0 X407.3 Y180.9
G0 X407.0 Y180.7
G0 X406.9 Y180.7
G0 X406.7 Y180.6
G0 X406.3 Y180.6
G0 X405.8 Y180.7
G0 X405.3 Y180.9
G0 X405.1 Y181.1
G0 X406.5 Y184.2

M3 S165
G0 F2000
G0 X507.7 Y185.8
M3 S148
G0 F2000
G0 X507.8 Y185.7
G0 X508.2 Y185.4
G0 X508.7 Y185.1
G0 X509.1 Y184.7
G0 X509.3 Y184.3
G0 X509.4 Y184.1
G0 X509.2 Y183.9
G0 X508.7 Y183.5
G0 X507.9 Y183.0
G0 X507.0 Y182.6
G0 X506.2 Y182.3
G0 X506.0 Y182.2
G0 X505.7 Y182.3
G0 X505.6 Y182.3
G0 X505.3 Y182.6
G0 X505.3 Y182.7
G0 X505.3 Y182.9
G0 X505.3 Y183.1
G0 X505.2 Y183.6
G0 X505.4 Y184.3
G0 X505.8 Y185.0
G0 X506.1 Y185.4
G0 X506.2 Y185.6
G0 X506.3 Y185.6
G0 X506.9 Y185.7
G0 X507.0 Y185.7
G0 X507.7 Y185.8

M3 S165
G0 F2000
G0 X640.0 Y187.3
M3 S148
G0 F2000
G0 X639.8 Y187.5
G0 X639.1 Y188.0
G0 X638.6 Y188.7
G0 X638.5 Y189.5
G0 X638.7 Y190.2
G0 X638.8 Y190.4
G0 X637.2 Y194.8

M3 S165
G0 F2000
G0 X136.6 Y187.5
M3 S148
G0 F2000
G0 X136.4 Y187.8
G0 X136.1 Y188.5
G0 X135.9 Y189.5
G0 X135.9 Y190.5
G0 X136.0 Y191.3
G0 X136.0 Y191.6
G0 X136.3 Y191.5
G0 X137.1 Y191.4
G0 X138.1 Y191.3
G0 X139.1 Y191.4
G0 X139.8 Y191.6
G0 X140.0 Y191.7
G0 X140.2 Y191.7
G0 X140.5 Y191.8
G0 X140.9 Y191.8
G0 X141.4 Y191.7
G0 X141.7 Y191.5
G0 X141.8 Y191.4
G0 X141.8 Y191.3
G0 X142.0 Y190.7
G0 X141.8 Y190.2
G0 X141.7 Y190.1
G0 X141.6 Y189.9
G0 X141.2 Y189.4
G0 X140.5 Y188.8
G0 X139.7 Y188.4
G0 X139.0 Y188.1
G0 X136.6 Y187.5

M3 S165
G0 F2000
G0 X509.2 Y188.0
M3 S148
G0 F2000
G0 X509.2 Y188.1
G0 X509.3 Y188.4
G0 X509.4 Y188.8
G0 X509.7 Y189.3
G0 X509.9 Y189.6
G0 X510.0 Y189.7
G0 X510.0 Y189.8
G0 X510.3 Y190.3
G0 X510.6 Y191.0
G0 X511.1 Y191.7
G0 X511.4 Y192.4
G0 X511.7 Y193.1
G0 X511.7 Y193.8
G0 X511.4 Y194.5
G0 X511.0 Y195.1
G0 X510.8 Y195.2
G0 X510.7 Y195.5
G0 X510.8 Y195.8
G0 X510.9 Y195.9
G0 X511.1 Y196.2
G0 X511.2 Y196.6
G0 X511.4 Y197.0
G0 X511.5 Y197.4
G0 X511.8 Y197.8
G0 X514.4 Y198.4

M3 S165
G0 F2000
G0 X641.2 Y192.4
M3 S148
G0 F2000
G0 X641.4 Y192.4
G0 X642.2 Y192.5
G0 X642.3 Y192.5
G0 X642.4 Y192.3
G0 X643.1 Y190.9
G0 X643.2 Y190.8
G0 X643.0 Y190.8
G0 X642.3 Y190.8
G0 X641.7 Y190.8
G0 X641.2 Y192.4

M3 S165
G0 F2000
G0 X514.8 Y193.4
M3 S148
G0 F2000
G0 X514.6 Y193.4
G0 X514.1 Y193.4
G0 X513.5 Y193.3
G0 X513.1 Y193.1
G0 X512.7 Y192.8
G0 X512.4 Y192.6
G0 X512.1 Y192.2
G0 X511.9 Y191.8
G0 X511.7 Y191.6
G0 X511.7 Y191.5
G0 X511.6 Y191.3
G0 X510.9 Y190.5
G0 X510.1 Y189.8
G0 X510.8 Y195.2

M3 S165
G0 F2000
G0 X513.8 Y196.9
M3 S148
G0 F2000
G0 X513.8 Y196.9
G0 X513.8 Y196.5
G0 X513.8 Y196.4
G0 X513.8 Y196.4
G0 X513.6 Y196.2
G0 X513.5 Y196.2
G0 X513.4 Y196.3
G0 X513.4 Y196.3
G0 X513.8 Y196.9

M3 S165
G0 F2000
G0 X513.8 Y196.9
M3 S148
G0 F2000
G0 X513.9 Y196.9
G0 X513.7 Y197.0
G0 X513.4 Y197.2
G0 X512.9 Y197.3
G0 X512.4 Y197.2
G0 X512.1 Y196.9
G0 X512.0 Y196.8
G0 X511.9 Y196.7
G0 X510.9 Y195.9
G0 X510.8 Y195.8
G0 X510.8 Y196.2
G0 X510.6 Y197.3
G0 X510.4 Y198.8
G0 X510.1 Y200.3
G0 X510.1 Y201.5
G0 X510.2 Y201.8
G0 X512.0 Y202.8

M3 S165
G0 F2000
G0 X567.0 Y196.9
M3 S148
G0 F2000
G0 X567.2 Y196.7
G0 X567.6 Y195.7
G0 X567.8 Y194.6
G0 X567.7 Y193.5
G0 X567.6 Y192.7
G0 X567.6 Y192.4
G0 X567.4 Y191.9
G0 X567.3 Y189.7
G0 X567.7 Y187.4
G0 X567.9 Y186.9
G0 X567.9 Y186.7
G0 X568.1 Y186.2
G0 X568.2 Y185.6
G0 X568.2 Y185.1
G0 X568.0 Y184.7
G0 X567.6 Y184.4
G0 X567.1 Y184.1
G0 X566.3 Y183.9
G0 X565.6 Y183.8
G0 X565.3 Y183.7
G0 X565.0 Y183.7
G0 X564.1 Y183.4
G0 X563.2 Y182.9
G0 X562.7 Y182.2
G0 X562.6 Y181.5
G0 X562.6 Y181.3
G0 X562.5 Y181.2
G0 X561.9 Y180.9
G0 X561.8 Y180.8
G0 X561.7 Y180.8
G0 X560.9 Y180.9
G0 X559.7 Y181.8

M3 S165
G0 F2000
G0 X633.2 Y199.2
M3 S148
G0 F2000
G0 X635.0 Y200.8
G0 X635.0 Y200.8
G0 X635.5 Y200.7
G0 X635.9 Y200.5
G0 X635.9 Y200.5
G0 X636.0 Y200.4
G0 X636.0 Y200.2
G0 X635.9 Y200.0
G0 X635.6 Y199.8
G0 X635.4 Y199.7
G0 X635.3 Y199.6
G0 X635.2 Y199.6
G0 X635.0 Y199.5
G0 X634.8 Y199.4
G0 X633.2 Y199.2

M3 S165
G0 F2000
G0 X83.8 Y199.7
M3 S148
G0 F2000
G0 X83.7 Y199.8
G0 X83.2 Y200.1
G0 X82.7 Y200.4
G0 X82.5 Y200.7
G0 X82.4 Y201.0
G0 X82.5 Y201.2
G0 X82.8 Y201.5
G0 X83.2 Y201.8
G0 X83.7 Y202.2
G0 X83.9 Y202.3
G0 X84.0 Y202.2
G0 X84.4 Y201.8
G0 X83.8 Y199.7

M3 S165
G0 F2000
G0 X422.0 Y200.3
M3 S148
G0 F2000
G0 X421.8 Y200.0
G0 X420.8 Y199.1
G0 X419.3 Y198.3
G0 X417.6 Y198.1
G0 X416.0 Y198.2
G0 X415.5 Y198.3
G0 X415.3 Y198.4
G0 X414.6 Y198.6
G0 X413.7 Y198.9
G0 X413.0 Y199.4
G0 X412.4 Y199.9
G0 X412.0 Y200.4
G0 X411.7 Y201.1
G0 X411.5 Y201.8
G0 X411.5 Y202.3
G0 X411.6 Y202.5
G0 X411.6 Y202.8
G0 X412.4 Y206.0
G0 X412.5 Y206.3
G0 X412.5 Y206.4
G0 X412.6 Y206.7
G0 X412.8 Y207.1
G0 X413.2 Y207.4
G0 X413.6 Y207.5
G0 X413.8 Y207.5
G0 X413.9 Y207.6
G0 X414.4 Y207.5
G0 X415.0 Y207.3
G0 X415.4 Y206.9
G0 X415.7 Y206.6
G0 X415.7 Y206.5
G0 X415.8 Y206.4
G0 X416.2 Y205.7
G0 X416.5 Y205.1
G0 X416.5 Y204.9
G0 X416.5 Y204.7
G0 X416.6 Y204.0
G0 X416.9 Y203.2
G0 X417.4 Y202.6
G0 X418.1 Y202.0
G0 X418.9 Y201.6
G0 X422.0 Y200.3

M3 S165
G0 F2000
G0 X638.2 Y200.4
M3 S148
G0 F2000
G0 X638.0 Y200.2
G0 X637.3 Y199.6
G0 X636.6 Y198.9
G0 X636.2 Y198.3
G0 X636.0 Y197.7
G0 X636.0 Y197.1
G0 X636.2 Y196.4
G0 X636.6 Y195.7
G0 X637.1 Y195.0
G0 X637.2 Y194.8
G0 X637.0 Y194.8
G0 X636.4 Y194.8
G0 X635.5 Y194.9
G0 X634.6 Y195.0
G0 X633.8 Y195.2
G0 X633.0 Y195.4
G0 X632.3 Y195.8
G0 X631.7 Y196.2
G0 X631.2 Y196.7
G0 X631.1 Y196.9
G0 X631.0 Y197.0
G0 X630.8 Y197.2
G0 X630.4 Y197.3
G0 X630.0 Y197.3
G0 X629.5 Y197.3
G0 X629.0 Y197.3
G0 X628.4 Y197.3
G0 X627.9 Y197.3
G0 X627.5 Y197.4
G0 X627.4 Y197.5
G0 X627.3 Y197.6
G0 X627.1 Y198.0
G0 X627.0 Y198.5
G0 X626.9 Y199.0
G0 X627.0 Y199.6
G0 X627.0 Y200.1
G0 X627.0 Y200.6
G0 X626.8 Y201.2
G0 X626.6 Y201.6
G0 X626.5 Y201.7
G0 X626.2 Y201.9
G0 X623.5 Y204.8
G0 X623.2 Y205.1
G0 X623.2 Y205.2
G0 X623.3 Y205.5
G0 X623.5 Y205.8
G0 X623.6 Y205.8
G0 X623.7 Y205.9
G0 X624.3 Y206.1
G0 X625.0 Y206.1
G0 X625.1 Y206.1
G0 X625.4 Y206.1
G0 X626.2 Y205.9
G0 X627.1 Y205.5
G0 X627.9 Y205.0
G0 X628.5 Y204.6
G0 X628.7 Y204.5
G0 X628.8 Y204.4
G0 X629.5 Y204.0
G0 X630.2 Y203.6
G0 X630.4 Y203.6
G0 X630.5 Y203.5
G0 X631.2 Y203.2
G0 X631.3 Y203.1
G0 X631.4 Y203.0
G0 X631.6 Y202.6
G0 X631.8 Y202.1
G0 X632.9 Y201.5

M3 S165
G0 F2000
G0 X635.0 Y200.8
M3 S148
G0 F2000
G0 X635.0 Y200.7
G0 X634.9 Y200.2
G0 X634.5 Y199.8
G0 X633.9 Y199.5
G0 X633.4 Y199.2
G0 X633.2 Y199.2
G0 X633.1 Y199.1
G0 X632.8 Y198.9
G0 X632.6 Y198.5
G0 X632.2 Y198.2
G0 X631.8 Y198.1
G0 X631.7 Y198.1
G0 X631.5 Y198.2
G0 X631.0 Y198.3
G0 X630.6 Y198.6
G0 X630.4 Y199.1
G0 X630.3 Y199.4
G0 X630.3 Y199.6
G0 X630.2 Y199.8
G0 X630.2 Y200.3
G0 X630.0 Y201.1
G0 X629.8 Y201.8
G0 X627.7 Y203.6

M3 S165
G0 F2000
G0 X630.3 Y204.7
M3 S148
G0 F2000
G0 X630.2 Y204.5
G0 X629.7 Y204.2
G0 X629.1 Y203.9
G0 X628.3 Y203.8
G0 X627.8 Y203.6
G0 X627.7 Y203.6
G0 X627.5 Y203.7
G0 X626.9 Y203.9
G0 X626.0 Y204.2
G0 X619.1 Y208.3

M3 S165
G0 F2000
G0 X512.6 Y207.4
M3 S148
G0 F2000
G0 X512.4 Y207.4
G0 X511.7 Y207.2
G0 X510.8 Y207.2
G0 X509.9 Y207.4
G0 X509.3 Y207.6
G0 X509.1 Y207.7
G0 X508.9 Y208.0
G0 X508.4 Y209.2
G0 X508.3 Y210.5
G0 X508.9 Y214.2

M3 S165
G0 F2000
G0 X620.1 Y208.6
M3 S148
G0 F2000
G0 X620.4 Y208.4
G0 X621.5 Y207.9
G0 X622.8 Y207.2
G0 X623.9 Y206.3
G0 X624.5 Y205.4
G0 X624.6 Y205.2
G0 X623.3 Y205.4
G0 X623.1 Y205.6
G0 X622.5 Y206.1
G0 X621.5 Y206.6
G0 X620.4 Y207.0
G0 X619.7 Y207.4
G0 X615.0 Y209.0

M3 S165
G0 F2000
G0 X619.6 Y209.1
M3 S148
G0 F2000
G0 X619.7 Y208.9
G0 X620.0 Y208.5
G0 X620.7 Y208.0
G0 X621.5 Y207.7
G0 X622.0 Y207.4
G0 X622.2 Y207.3
G0 X622.4 Y207.2
G0 X622.9 Y206.9
G0 X623.4 Y206.5
G0 X623.6 Y206.0
G0 X623.4 Y205.5
G0 X623.3 Y205.4
G0 X623.3 Y205.3
G0 X623.2 Y205.1
G0 X623.2 Y205.1
G0 X622.6 Y205.3
G0 X619.6 Y206.2
G0 X616.7 Y207.3
G0 X616.1 Y207.5
G0 X615.9 Y207.6
G0 X615.2 Y207.8
G0 X614.3 Y207.9
G0 X613.4 Y207.8
G0 X612.8 Y207.6
G0 X612.5 Y207.6
G0 X612.3 Y207.4
G0 X611.4 Y206.9
G0 X610.3 Y206.5
G0 X609.3 Y206.3
G0 X608.4 Y206.3
G0 X607.6 Y206.6
G0 X607.0 Y207.0
G0 X606.5 Y207.7
G0 X606.1 Y208.3
G0 X609.7 Y209.9

M3 S165
G0 F2000
G0 X583.5 Y209.8
M3 S148
G0 F2000
G0 X583.3 Y209.7
G0 X582.7 Y209.3
G0 X581.8 Y209.0
G0 X580.8 Y208.9
G0 X580.0 Y209.1
G0 X579.8 Y209.2
G0 X579.5 Y209.3
G0 X578.6 Y209.5
G0 X577.5 Y209.7
G0 X576.3 Y209.7
G0 X575.4 Y209.8
G0 X575.0 Y209.8
G0 X575.4 Y209.9
G0 X576.4 Y210.2
G0 X577.8 Y210.4
G0 X579.1 Y210.3
G0 X580.2 Y210.1
G0 X583.5 Y209.8

M3 S165
G0 F2000
G0 X508.4 Y210.8
M3 S148
G0 F2000
G0 X508.5 Y210.6
G0 X509.4 Y208.4
G0 X509.5 Y208.2
G0 X509.7 Y208.1
G0 X510.3 Y207.7
G0 X510.9 Y207.1
G0 X511.4 Y206.5
G0 X511.6 Y205.9
G0 X511.7 Y205.2
G0 X511.7 Y204.6
G0 X511.6 Y203.9
G0 X511.4 Y203.3
G0 X511.4 Y203.1
G0 X511.3 Y203.0
G0 X510.7 Y202.5
G0 X510.2 Y202.0
G0 X510.0 Y201.9
G0 X510.2 Y201.8
G0 X509.9 Y202.3
G0 X509.4 Y203.6
G0 X508.8 Y205.4
G0 X508.4 Y210.8

M3 S165
G0 F2000
G0 X595.7 Y210.9
M3 S148
G0 F2000
G0 X595.3 Y210.9
G0 X594.1 Y210.9
G0 X592.5 Y211.2
G0 X590.9 Y211.5
G0 X589.7 Y211.8
G0 X589.4 Y211.9
G0 X589.3 Y212.0
G0 X589.4 Y212.2
G0 X590.4 Y213.1

M3 S165
G0 F2000
G0 X587.7 Y211.8
M3 S148
G0 F2000
G0 X587.6 Y211.8
G0 X587.4 Y211.2
G0 X587.4 Y211.1
G0 X587.2 Y211.0
G0 X586.6 Y210.6
G0 X586.0 Y210.1
G0 X585.9 Y210.0
G0 X585.7 Y210.0
G0 X585.4 Y209.7
G0 X585.0 Y209.3
G0 X584.5 Y209.0
G0 X584.0 Y208.8
G0 X583.8 Y208.8
G0 X583.5 Y208.8
G0 X582.3 Y208.8
G0 X580.7 Y208.9
G0 X579.2 Y208.8
G0 X578.1 Y208.5
G0 X577.8 Y208.3
G0 X577.7 Y208.3
G0 X577.1 Y207.9
G0 X577.0 Y207.9
G0 X577.0 Y207.9
G0 X576.5 Y207.4
G0 X576.5 Y207.4
G0 X576.5 Y207.4
G0 X576.1 Y206.9
G0 X576.1 Y206.8
G0 X575.9 Y206.6
G0 X575.6 Y205.9
G0 X575.2 Y204.9
G0 X574.7 Y204.0
G0 X574.2 Y203.4
G0 X570.7 Y203.1

M3 S165
G0 F2000
G0 X588.8 Y212.0
M3 S148
G0 F2000
G0 X588.9 Y212.1
G0 X590.2 Y213.1
G0 X590.4 Y213.2
G0 X590.5 Y213.1
G0 X590.9 Y213.1
G0 X591.4 Y213.1
G0 X591.9 Y213.0
G0 X592.2 Y212.7
G0 X592.3 Y212.6
G0 X592.2 Y212.5
G0 X591.7 Y212.2
G0 X588.8 Y212.0

M3 S165
G0 F2000
G0 X590.4 Y213.1
M3 S148
G0 F2000
G0 X590.4 Y213.2
G0 X590.4 Y213.1
G0 X590.5 Y212.8
G0 X590.4 Y212.6
G0 X590.2 Y212.4
G0 X589.9 Y212.3
G0 X589.6 Y212.3
G0 X589.2 Y212.2
G0 X586.5 Y212.0

M3 S165
G0 F2000
G0 X508.4 Y214.3
M3 S148
G0 F2000
G0 X508.2 Y214.3
G0 X507.6 Y214.4
G0 X507.2 Y214.6
G0 X506.9 Y215.0
G0 X506.7 Y215.4
G0 X506.6 Y215.5
G0 X506.4 Y215.9
G0 X505.8 Y217.3
G0 X505.1 Y219.2
G0 X504.5 Y221.1
G0 X503.9 Y222.5
G0 X503.7 Y223.0
G0 X503.2 Y224.1
G0 X501.4 Y227.5
G0 X498.8 Y231.9
G0 X495.8 Y236.1
G0 X493.2 Y239.2
G0 X491.1 Y242.4

M3 S165
G0 F2000
G0 X469.3 Y215.9
M3 S148
G0 F2000
G0 X469.2 Y215.9
G0 X468.8 Y216.1
G0 X468.6 Y216.3
G0 X468.5 Y216.4
G0 X468.5 Y216.4
G0 X468.5 Y216.6
G0 X468.5 Y216.8
G0 X468.7 Y216.9
G0 X468.9 Y216.9
G0 X468.9 Y216.9
G0 X469.0 Y216.9
G0 X469.3 Y215.9

M3 S165
G0 F2000
G0 X285.1 Y225.0
M3 S148
G0 F2000
G0 X285.1 Y225.0
G0 X285.3 Y225.2
G0 X285.3 Y225.2
G0 X285.3 Y225.2
G0 X285.5 Y225.2
G0 X285.6 Y225.2
G0 X285.6 Y225.2
G0 X285.1 Y225.0

M3 S165
G0 F2000
G0 X419.7 Y225.5
M3 S148
G0 F2000
G0 X419.8 Y225.3
G0 X420.1 Y224.7
G0 X420.1 Y224.0
G0 X420.1 Y223.2
G0 X420.0 Y222.7
G0 X419.9 Y222.5
G0 X419.9 Y222.0
G0 X419.7 Y220.6
G0 X419.7 Y218.6
G0 X419.9 Y216.7
G0 X420.3 Y215.3
G0 X420.5 Y214.8
G0 X420.0 Y215.1
G0 X418.8 Y216.2
G0 X417.8 Y217.7
G0 X417.5 Y219.4
G0 X417.6 Y220.7
G0 X417.8 Y221.1
G0 X417.8 Y221.3
G0 X417.9 Y221.7
G0 X417.9 Y222.3
G0 X419.7 Y225.5

M3 S165
G0 F2000
G0 X283.3 Y227.1
M3 S148
G0 F2000
G0 X283.2 Y227.0
G0 X283.0 Y226.7
G0 X282.6 Y226.6
G0 X282.5 Y226.6
G0 X282.4 Y226.7
G0 X282.1 Y226.9
G0 X282.0 Y227.2
G0 X282.0 Y227.3
G0 X282.0 Y227.4
G0 X283.3 Y227.1

M3 S165
G0 F2000
G0 X428.9 Y230.5
M3 S148
G0 F2000
G0 X428.9 Y230.4
G0 X428.7 Y229.7
G0 X428.7 Y229.7
G0 X428.6 Y229.6
G0 X428.4 Y229.2
G0 X427.9 Y228.9
G0 X427.2 Y228.7
G0 X426.6 Y228.5
G0 X425.9 Y228.3
G0 X425.3 Y228.1
G0 X424.8 Y227.6
G0 X424.6 Y227.1
G0 X424.6 Y227.0
G0 X424.5 Y226.8
G0 X424.3 Y226.5
G0 X423.9 Y226.2
G0 X423.4 Y225.9
G0 X422.7 Y225.8
G0 X422.0 Y225.7
G0 X421.2 Y225.6
G0 X420.4 Y225.5
G0 X419.9 Y225.5
G0 X419.7 Y225.5
G0 X419.7 Y226.0
G0 X419.9 Y226.1
G0 X420.5 Y226.2
G0 X421.2 Y226.6
G0 X421.7 Y227.1
G0 X421.9 Y227.5
G0 X422.0 Y227.7
G0 X422.0 Y227.9
G0 X422.3 Y228.5
G0 X422.7 Y229.2
G0 X423.3 Y229.7
G0 X424.0 Y230.1
G0 X424.8 Y230.3
G0 X428.9 Y230.5

M3 S165
G0 F2000
G0 X443.4 Y230.5
M3 S148
G0 F2000
G0 X443.4 Y230.3
G0 X443.2 Y229.7
G0 X442.7 Y229.1
G0 X441.9 Y228.6
G0 X441.1 Y228.5
G0 X440.9 Y228.5
G0 X440.7 Y228.6
G0 X440.1 Y228.6
G0 X439.4 Y228.8
G0 X438.7 Y228.9
G0 X438.1 Y229.2
G0 X437.6 Y229.5
G0 X437.1 Y229.9
G0 X436.8 Y230.4
G0 X436.6 Y230.9
G0 X443.4 Y230.5

M3 S165
G0 F2000
G0 X392.1 Y235.5
M3 S148
G0 F2000
G0 X392.3 Y235.7
G0 X392.8 Y236.4
G0 X392.9 Y237.2
G0 X392.6 Y238.0
G0 X392.1 Y238.7
G0 X391.9 Y238.9
G0 X391.3 Y239.7
G0 X389.2 Y241.8
G0 X386.3 Y244.7
G0 X383.6 Y247.6
G0 X381.7 Y249.9
G0 X381.1 Y250.7
G0 X381.0 Y250.8
G0 X380.5 Y251.2
G0 X379.7 Y251.6
G0 X378.9 Y251.9
G0 X378.3 Y252.2
G0 X376.8 Y254.0

M3 S165
G0 F2000
G0 X97.7 Y238.3
M3 S148
G0 F2000
G0 X97.6 Y238.4
G0 X97.5 Y238.7
G0 X97.7 Y239.1
G0 X98.0 Y239.4
G0 X98.2 Y239.7
G0 X98.3 Y239.7
G0 X98.9 Y240.2
G0 X101.5 Y242.8
G0 X104.3 Y245.3
G0 X105.0 Y245.8
G0 X105.7 Y246.3
G0 X107.5 Y248.0
G0 X109.7 Y250.4
G0 X111.6 Y253.0
G0 X112.7 Y255.1
G0 X113.1 Y255.8
G0 X113.2 Y256.0
G0 X113.4 Y256.9
G0 X113.3 Y258.0
G0 X113.0 Y259.0
G0 X112.6 Y259.8
G0 X112.5 Y260.1
G0 X112.4 Y260.2
G0 X112.2 Y260.7
G0 X111.9 Y261.2
G0 X111.9 Y261.8
G0 X112.3 Y262.3
G0 X112.4 Y262.4
G0 X112.6 Y262.4
G0 X113.1 Y262.5
G0 X113.8 Y262.3
G0 X114.6 Y261.8
G0 X115.1 Y261.2
G0 X115.3 Y261.0
G0 X115.4 Y260.8
G0 X115.9 Y259.9
G0 X116.5 Y258.9
G0 X116.9 Y257.8
G0 X117.2 Y256.7
G0 X117.2 Y255.6
G0 X117.1 Y254.5
G0 X116.7 Y253.4
G0 X116.2 Y252.5
G0 X116.0 Y252.2
G0 X115.8 Y252.1
G0 X115.2 Y251.3
G0 X114.3 Y250.6
G0 X114.1 Y250.5
G0 X113.3 Y250.0
G0 X111.1 Y248.5
G0 X108.2 Y246.4
G0 X105.6 Y244.1
G0 X103.8 Y242.3
G0 X103.2 Y241.7
G0 X102.9 Y241.5
G0 X102.1 Y240.8
G0 X101.0 Y239.9
G0 X97.7 Y238.3

M3 S165
G0 F2000
G0 X480.8 Y250.5
M3 S148
G0 F2000
G0 X480.6 Y250.8
G0 X479.6 Y251.5
G0 X478.2 Y252.4
G0 X476.8 Y253.3
G0 X475.8 Y254.1
G0 X475.5 Y254.4
G0 X475.4 Y254.5
G0 X475.2 Y254.8
G0 X474.8 Y255.0
G0 X474.7 Y255.1
G0 X474.7 Y255.1
G0 X474.7 Y255.2
G0 X474.6 Y255.6
G0 X474.8 Y256.0
G0 X477.1 Y257.8

M3 S165
G0 F2000
G0 X379.2 Y251.8
M3 S148
G0 F2000
G0 X379.3 Y251.4
G0 X380.3 Y249.8
G0 X381.6 Y248.4
G0 X381.9 Y248.1
G0 X382.7 Y247.6
G0 X384.6 Y245.7
G0 X387.1 Y243.1
G0 X389.4 Y240.5
G0 X391.2 Y238.5
G0 X391.8 Y237.9
G0 X392.0 Y237.6
G0 X393.3 Y236.3
G0 X394.7 Y235.1
G0 X394.3 Y233.8

M3 S165
G0 F2000
G0 X379.2 Y251.8
M3 S148
G0 F2000
G0 X379.2 Y251.8
G0 X379.2 Y252.8
G0 X379.2 Y252.8
G0 X379.3 Y252.8
G0 X379.9 Y252.6
G0 X380.7 Y252.3
G0 X381.3 Y251.9
G0 X381.8 Y251.5
G0 X381.9 Y251.4
G0 X382.4 Y250.6
G0 X384.4 Y248.3
G0 X387.1 Y245.4
G0 X390.0 Y242.6
G0 X392.1 Y240.4
G0 X392.7 Y239.6
G0 X393.0 Y239.2
G0 X394.2 Y237.3
G0 X395.2 Y235.4
G0 X395.4 Y235.0
G0 X395.4 Y235.0
G0 X395.1 Y234.9
G0 X395.1 Y234.8
G0 X394.7 Y234.8
G0 X393.6 Y234.8
G0 X392.4 Y235.1
G0 X391.4 Y235.8
G0 X390.7 Y236.4
G0 X390.6 Y236.6
G0 X389.7 Y237.6
G0 X385.4 Y242.4
G0 X380.8 Y247.1
G0 X379.9 Y248.0
G0 X379.8 Y248.1
G0 X379.4 Y248.4
G0 X379.1 Y248.9
G0 X379.2 Y251.8

M3 S165
G0 F2000
G0 X311.4 Y252.0
M3 S148
G0 F2000
G0 X311.2 Y251.9
G0 X310.5 Y251.6
G0 X309.6 Y251.7
G0 X308.9 Y252.0
G0 X308.2 Y252.3
G0 X308.1 Y252.3
G0 X308.0 Y252.5
G0 X307.4 Y253.8
G0 X307.3 Y254.0
G0 X307.3 Y254.2
G0 X307.3 Y254.7
G0 X307.1 Y255.5
G0 X306.8 Y256.2
G0 X306.3 Y256.8
G0 X305.9 Y257.5
G0 X305.4 Y258.1
G0 X305.1 Y258.9
G0 X305.0 Y259.4
G0 X305.0 Y259.6
G0 X305.0 Y259.6
G0 X304.9 Y259.6
G0 X304.6 Y260.0
G0 X304.6 Y260.4
G0 X304.5 Y260.9
G0 X304.3 Y261.2
G0 X304.2 Y261.2
G0 X304.2 Y261.2
G0 X302.6 Y264.0

M3 S165
G0 F2000
G0 X308.1 Y252.3
M3 S148
G0 F2000
G0 X308.2 Y252.4
G0 X308.9 Y252.5
G0 X309.7 Y252.4
G0 X310.4 Y252.2
G0 X310.9 Y251.9
G0 X311.1 Y251.8
G0 X311.2 Y251.7
G0 X311.3 Y251.5
G0 X311.2 Y251.2
G0 X311.1 Y251.2
G0 X308.1 Y252.3

M3 S165
G0 F2000
G0 X311.8 Y254.5
M3 S148
G0 F2000
G0 X311.8 Y254.4
G0 X311.8 Y254.0
G0 X311.8 Y254.0
G0 X311.8 Y253.8
G0 X311.8 Y253.3
G0 X311.8 Y252.5
G0 X311.7 Y251.8
G0 X311.3 Y251.3
G0 X311.1 Y251.2
G0 X311.1 Y251.2
G0 X311.1 Y251.6
G0 X306.2 Y260.9

M3 S165
G0 F2000
G0 X377.7 Y255.7
M3 S148
G0 F2000
G0 X377.7 Y255.7
G0 X377.7 Y255.6
G0 X377.9 Y255.4
G0 X378.0 Y255.1
G0 X378.1 Y254.8
G0 X378.3 Y254.6
G0 X378.4 Y254.5
G0 X378.4 Y254.4
G0 X378.6 Y253.7
G0 X379.0 Y253.0
G0 X379.1 Y252.8
G0 X379.2 Y252.8
G0 X379.6 Y252.3
G0 X379.6 Y251.8
G0 X376.4 Y251.5

M3 S165
G0 F2000
G0 X477.5 Y256.9
M3 S148
G0 F2000
G0 X477.2 Y256.9
G0 X475.6 Y256.6
G0 X474.1 Y256.3
G0 X473.8 Y256.2
G0 X473.4 Y256.2
G0 X472.4 Y256.4
G0 X471.2 Y256.7
G0 X470.3 Y257.2
G0 X469.7 Y257.8
G0 X469.4 Y258.6
G0 X469.4 Y259.4
G0 X469.6 Y260.3
G0 X470.1 Y261.0
G0 X470.3 Y261.3
G0 X470.4 Y261.1
G0 X470.9 Y260.6
G0 X471.4 Y260.1
G0 X475.2 Y259.7

M3 S165
G0 F2000
G0 X477.1 Y257.8
M3 S148
G0 F2000
G0 X477.2 Y257.7
G0 X477.4 Y257.3
G0 X477.8 Y256.7
G0 X478.2 Y256.2
G0 X478.6 Y255.7
G0 X478.8 Y255.5
G0 X478.5 Y255.5
G0 X477.6 Y255.5
G0 X476.6 Y255.5
G0 X475.6 Y255.4
G0 X474.9 Y255.2
G0 X474.7 Y255.1
G0 X474.6 Y255.1
G0 X474.1 Y255.3
G0 X473.8 Y255.5
G0 X473.6 Y255.8
G0 X473.6 Y256.1
G0 X473.7 Y256.4
G0 X473.8 Y256.7
G0 X474.0 Y257.0
G0 X474.0 Y257.3
G0 X477.1 Y257.8

M3 S165
G0 F2000
G0 X475.7 Y258.8
M3 S148
G0 F2000
G0 X475.4 Y258.7
G0 X474.1 Y258.6
G0 X472.9 Y258.4
G0 X472.0 Y258.4
G0 X471.3 Y258.5
G0 X470.8 Y258.9
G0 X470.3 Y259.4
G0 X469.8 Y260.2
G0 X469.3 Y261.1
G0 X469.1 Y261.3
G0 X469.1 Y261.7
G0 X468.8 Y263.0
G0 X468.5 Y264.7
G0 X467.9 Y266.4
G0 X467.1 Y267.6
G0 X466.8 Y268.0
G0 X466.7 Y268.1
G0 X466.4 Y268.6
G0 X466.4 Y269.2
G0 X466.4 Y269.3
G0 X466.5 Y269.7
G0 X466.6 Y271.1
G0 X466.6 Y272.8
G0 X466.2 Y274.4
G0 X465.8 Y276.1
G0 X465.1 Y277.7
G0 X464.4 Y279.3
G0 X463.0 Y283.7

M3 S165
G0 F2000
G0 X305.0 Y259.6
M3 S148
G0 F2000
G0 X305.2 Y259.4
G0 X305.9 Y258.6
G0 X306.7 Y257.6
G0 X307.4 Y256.6
G0 X308.0 Y255.8
G0 X308.2 Y255.5
G0 X308.3 Y255.4
G0 X308.4 Y255.1
G0 X308.3 Y254.6
G0 X307.9 Y254.3
G0 X307.4 Y254.0
G0 X305.0 Y259.6

M3 S165
G0 F2000
G0 X242.8 Y261.3
M3 S148
G0 F2000
G0 X243.0 Y261.2
G0 X243.4 Y261.0
G0 X243.9 Y260.7
G0 X244.4 Y260.3
G0 X244.7 Y259.9
G0 X244.9 Y259.5
G0 X245.1 Y259.0
G0 X245.0 Y258.5
G0 X244.9 Y258.1
G0 X244.8 Y257.9
G0 X244.6 Y258.0
G0 X244.1 Y258.2
G0 X243.7 Y258.6
G0 X242.8 Y261.3

M3 S165
G0 F2000
G0 X375.2 Y266.8
M3 S148
G0 F2000
G0 X375.4 Y266.9
G0 X375.8 Y267.3
G0 X376.2 Y267.9
G0 X376.5 Y268.5
G0 X376.8 Y269.0
G0 X376.9 Y269.1
G0 X376.9 Y269.1
G0 X376.9 Y269.0
G0 X377.6 Y268.6
G0 X377.6 Y268.5
G0 X377.6 Y266.9
G0 X377.6 Y266.6
G0 X377.6 Y265.9
G0 X377.6 Y264.9
G0 X377.7 Y264.0
G0 X377.9 Y263.2
G0 X378.1 Y263.0
G0 X378.1 Y262.9
G0 X378.3 Y262.3
G0 X378.4 Y261.6
G0 X378.3 Y260.9
G0 X378.1 Y260.4
G0 X377.7 Y255.7

M3 S165
G0 F2000
G0 X122.8 Y269.6
M3 S148
G0 F2000
G0 X122.8 Y270.9
G0 X122.9 Y283.5
G0 X122.9 Y284.7
G0 X123.1 Y284.5
G0 X123.4 Y283.9
G0 X123.6 Y283.0
G0 X123.6 Y282.1
G0 X123.6 Y281.4
G0 X122.8 Y269.6

M3 S165
G0 F2000
G0 X299.3 Y274.6
M3 S148
G0 F2000
G0 X299.3 Y274.7
G0 X299.3 Y275.0
G0 X299.3 Y275.5
G0 X299.5 Y275.9
G0 X299.8 Y276.2
G0 X299.9 Y276.2
G0 X300.1 Y276.4
G0 X304.3 Y278.3

M3 S165
G0 F2000
G0 X211.2 Y276.1
M3 S148
G0 F2000
G0 X211.1 Y276.1
G0 X210.7 Y276.1
G0 X210.2 Y276.3
G0 X209.9 Y276.6
G0 X209.8 Y276.9
G0 X209.8 Y277.1
G0 X209.8 Y277.1
G0 X209.9 Y277.3
G0 X210.1 Y277.6
G0 X210.4 Y277.7
G0 X210.7 Y277.7
G0 X210.8 Y277.7
G0 X210.9 Y277.7
G0 X211.3 Y277.6
G0 X211.8 Y277.4
G0 X212.1 Y277.1
G0 X212.3 Y276.8
G0 X211.2 Y276.1

M3 S165
G0 F2000
G0 X466.9 Y276.6
M3 S148
G0 F2000
G0 X467.1 Y276.0
G0 X468.1 Y273.0
G0 X468.8 Y269.9
G0 X468.9 Y269.3
G0 X468.9 Y268.6
G0 X469.5 Y265.3
G0 X470.1 Y261.9
G0 X470.3 Y261.3
G0 X470.3 Y261.0
G0 X470.4 Y259.9
G0 X470.8 Y258.8
G0 X470.9 Y258.6
G0 X471.0 Y258.4
G0 X471.4 Y257.9
G0 X472.1 Y257.4
G0 X472.9 Y257.2
G0 X473.8 Y257.3
G0 X474.0 Y257.3
G0 X474.1 Y257.3
G0 X474.6 Y257.1
G0 X475.2 Y256.8
G0 X475.7 Y256.6
G0 X476.1 Y256.3
G0 X476.1 Y256.2
G0 X476.1 Y256.1
G0 X476.5 Y255.5
G0 X476.5 Y255.4
G0 X476.6 Y255.4
G0 X476.9 Y254.8
G0 X481.9 Y251.6

M3 S165
G0 F2000
G0 X305.4 Y278.6
M3 S148
G0 F2000
G0 X305.2 Y278.7
G0 X304.9 Y279.1
G0 X304.6 Y279.6
G0 X304.7 Y280.1
G0 X304.9 Y280.5
G0 X305.0 Y280.7
G0 X305.0 Y280.8
G0 X305.6 Y281.7
G0 X305.7 Y281.8
G0 X305.7 Y282.0
G0 X306.2 Y283.7
G0 X306.2 Y283.9
G0 X306.3 Y283.9
G0 X306.6 Y284.4
G0 X307.0 Y284.8
G0 X307.1 Y284.9
G0 X307.4 Y285.1
G0 X308.3 Y285.7
G0 X309.1 Y286.7
G0 X309.6 Y287.8
G0 X310.0 Y288.6
G0 X311.8 Y291.5

M3 S165
G0 F2000
G0 X212.1 Y280.9
M3 S148
G0 F2000
G0 X212.2 Y281.0
G0 X212.4 Y281.3
G0 X212.8 Y281.4
G0 X212.9 Y281.4
G0 X213.1 Y281.4
G0 X213.6 Y281.2
G0 X213.9 Y280.8
G0 X213.9 Y280.7
G0 X213.9 Y280.6
G0 X213.8 Y280.4
G0 X213.6 Y280.2
G0 X212.1 Y280.9

M3 S165
G0 F2000
G0 X312.6 Y290.9
M3 S148
G0 F2000
G0 X312.5 Y290.7
G0 X312.3 Y290.0
G0 X311.9 Y289.1
G0 X311.5 Y288.1
G0 X311.1 Y287.3
G0 X310.5 Y286.4
G0 X309.8 Y285.6
G0 X309.0 Y284.9
G0 X308.3 Y284.3
G0 X308.0 Y284.2
G0 X307.9 Y284.1
G0 X307.3 Y283.7
G0 X307.3 Y283.6
G0 X307.3 Y283.4
G0 X307.2 Y281.6
G0 X305.7 Y279.1

M3 S165
G0 F2000
G0 X373.9 Y294.9
M3 S148
G0 F2000
G0 X373.9 Y294.8
G0 X373.8 Y293.7
G0 X373.8 Y293.6
G0 X373.5 Y293.7
G0 X372.6 Y294.0
G0 X372.2 Y294.5
G0 X372.3 Y295.1
G0 X372.8 Y295.7
G0 X372.9 Y295.9
G0 X373.9 Y294.9

M3 S165
G0 F2000
G0 X421.4 Y296.4
M3 S148
G0 F2000
G0 X421.3 Y296.4
G0 X421.1 Y296.5
G0 X421.1 Y296.6
G0 X421.1 Y296.6
G0 X421.3 Y296.9
G0 X421.4 Y296.9
G0 X421.4 Y296.4

M3 S165
G0 F2000
G0 X371.6 Y298.7
M3 S148
G0 F2000
G0 X371.7 Y298.6
G0 X372.9 Y297.2
G0 X373.1 Y297.1
G0 X373.1 Y297.0
G0 X373.2 Y296.1
G0 X373.2 Y296.0
G0 X373.1 Y296.0
G0 X372.7 Y295.7
G0 X372.6 Y295.7
G0 X372.5 Y295.7
G0 X371.9 Y295.7
G0 X371.4 Y295.9
G0 X370.9 Y296.2
G0 X370.6 Y296.5
G0 X370.6 Y296.6
G0 X371.6 Y298.7

M3 S165
G0 F2000
G0 X318.0 Y300.2
M3 S148
G0 F2000
G0 X317.8 Y300.3
G0 X317.1 Y300.4
G0 X316.5 Y300.7
G0 X316.1 Y301.0
G0 X316.0 Y301.3
G0 X316.1 Y301.7
G0 X316.3 Y302.1
G0 X316.6 Y302.5
G0 X316.9 Y302.9
G0 X317.0 Y303.0
G0 X317.2 Y303.2
G0 X317.7 Y303.9
G0 X318.0 Y304.9
G0 X317.6 Y305.7
G0 X316.8 Y306.4
G0 X316.5 Y306.5
G0 X316.5 Y306.7
G0 X316.4 Y308.6
G0 X317.6 Y310.4

M3 S165
G0 F2000
G0 X318.0 Y301.0
M3 S148
G0 F2000
G0 X317.8 Y300.9
G0 X317.4 Y300.5
G0 X316.9 Y299.9
G0 X316.4 Y299.1
G0 X316.1 Y298.5
G0 X316.0 Y298.3
G0 X315.9 Y298.5
G0 X315.7 Y299.3
G0 X315.6 Y299.9
G0 X315.5 Y300.0
G0 X315.5 Y300.4
G0 X315.6 Y301.7
G0 X315.9 Y303.3
G0 X316.3 Y304.9
G0 X316.5 Y306.1
G0 X316.5 Y306.5
G0 X316.6 Y306.6
G0 X316.9 Y306.7
G0 X317.2 Y306.9
G0 X317.7 Y307.1
G0 X318.1 Y307.1
G0 X318.2 Y307.1
G0 X318.3 Y307.1
G0 X318.7 Y306.9
G0 X319.0 Y306.5
G0 X319.1 Y306.1
G0 X319.3 Y305.9
G0 X319.3 Y305.8
G0 X319.5 Y305.6
G0 X319.8 Y304.9
G0 X319.8 Y304.0
G0 X319.3 Y303.3
G0 X318.6 Y302.8
G0 X318.3 Y302.6
G0 X318.1 Y302.6
G0 X317.5 Y302.2
G0 X317.1 Y301.7
G0 X318.0 Y301.0

M3 S165
G0 F2000
G0 X371.5 Y301.0
M3 S148
G0 F2000
G0 X371.5 Y300.8
G0 X371.6 Y298.9
G0 X371.6 Y298.7
G0 X371.5 Y298.7
G0 X371.0 Y298.6
G0 X370.9 Y298.6
G0 X370.8 Y298.7
G0 X370.4 Y299.0
G0 X369.9 Y299.4
G0 X369.4 Y299.8
G0 X369.1 Y300.2
G0 X369.0 Y300.6
G0 X369.1 Y301.1
G0 X369.4 Y301.6
G0 X369.9 Y302.0
G0 X371.5 Y301.0

M3 S165
G0 F2000
G0 X371.5 Y301.0
M3 S148
G0 F2000
G0 X371.8 Y300.8
G0 X372.6 Y300.1
G0 X373.1 Y299.2
G0 X373.2 Y298.1
G0 X373.1 Y297.3
G0 X373.1 Y297.1
G0 X372.9 Y297.0
G0 X372.4 Y297.0
G0 X371.9 Y297.1
G0 X371.5 Y297.2
G0 X371.1 Y297.4
G0 X370.9 Y297.7
G0 X370.7 Y298.0
G0 X370.5 Y298.4
G0 X370.4 Y298.7
G0 X371.5 Y301.0

M3 S165
G0 F2000
G0 X369.9 Y302.5
M3 S148
G0 F2000
G0 X370.8 Y304.9
G0 X370.9 Y304.8
G0 X371.3 Y304.6
G0 X371.7 Y304.3
G0 X371.9 Y303.9
G0 X371.9 Y303.5
G0 X371.9 Y303.4
G0 X371.9 Y303.2
G0 X371.6 Y301.7
G0 X371.5 Y301.5
G0 X371.4 Y301.5
G0 X371.0 Y301.3
G0 X370.6 Y301.4
G0 X369.9 Y302.5

M3 S165
G0 F2000
G0 X369.4 Y302.8
M3 S148
G0 F2000
G0 X369.4 Y302.7
G0 X369.9 Y302.5
G0 X369.9 Y302.5
G0 X369.9 Y302.5
G0 X370.0 Y302.1
G0 X370.0 Y302.1
G0 X370.2 Y301.8
G0 X371.4 Y299.0
G0 X371.5 Y298.7
G0 X371.5 Y298.5
G0 X371.6 Y296.7
G0 X370.5 Y296.2

M3 S165
G0 F2000
G0 X78.0 Y305.2
M3 S148
G0 F2000
G0 X78.2 Y305.2
G0 X78.7 Y305.3
G0 X79.3 Y305.2
G0 X79.9 Y305.1
G0 X80.4 Y304.8
G0 X80.9 Y304.4
G0 X81.4 Y304.0
G0 X81.8 Y303.5
G0 X82.1 Y303.1
G0 X78.0 Y303.2

M3 S165
G0 F2000
G0 X321.1 Y310.8
M3 S148
G0 F2000
G0 X320.9 Y310.6
G0 X320.1 Y310.1
G0 X319.0 Y309.4
G0 X317.8 Y309.0
G0 X316.7 Y308.8
G0 X316.4 Y308.8
G0 X316.2 Y309.0
G0 X315.8 Y310.0
G0 X315.8 Y311.0
G0 X315.8 Y311.2
G0 X315.9 Y311.6
G0 X316.3 Y313.6
G0 X316.5 Y315.7
G0 X316.5 Y316.1
G0 X316.5 Y316.2
G0 X316.6 Y316.6
G0 X316.9 Y316.8
G0 X317.3 Y316.9
G0 X317.8 Y316.7
G0 X317.9 Y316.6
G0 X317.9 Y316.6
G0 X318.0 Y316.1
G0 X318.0 Y316.1
G0 X318.0 Y316.0
G0 X318.1 Y314.9
G0 X318.1 Y314.8
G0 X318.1 Y314.8
G0 X318.1 Y314.5
G0 X318.1 Y314.5
G0 X318.1 Y314.3
G0 X318.6 Y313.9
G0 X319.2 Y313.6
G0 X319.9 Y313.7
G0 X320.5 Y314.0
G0 X325.9 Y317.7

M3 S165
G0 F2000
G0 X366.0 Y311.4
M3 S148
G0 F2000
G0 X366.1 Y311.4
G0 X366.3 Y311.0
G0 X366.3 Y311.0
G0 X366.4 Y310.7
G0 X366.8 Y310.0
G0 X367.4 Y309.1
G0 X368.1 Y308.3
G0 X368.8 Y307.7
G0 X369.1 Y307.5
G0 X369.2 Y307.4
G0 X369.8 Y307.0
G0 X370.3 Y306.3
G0 X370.6 Y305.6
G0 X370.8 Y305.1
G0 X370.8 Y304.9
G0 X370.9 Y304.8
G0 X371.2 Y304.2
G0 X369.1 Y302.4

M3 S165
G0 F2000
G0 X366.4 Y312.8
M3 S148
G0 F2000
G0 X366.5 Y312.7
G0 X366.7 Y311.9
G0 X366.4 Y311.1
G0 X366.3 Y311.0
G0 X366.0 Y311.1
G0 X365.9 Y311.2
G0 X365.7 Y311.4
G0 X365.5 Y311.8
G0 X366.4 Y312.8

M3 S165
G0 F2000
G0 X321.4 Y313.4
M3 S148
G0 F2000
G0 X321.3 Y313.3
G0 X320.9 Y313.0
G0 X320.4 Y312.7
G0 X319.8 Y312.5
G0 X319.3 Y312.4
G0 X318.8 Y312.4
G0 X318.2 Y312.6
G0 X317.7 Y313.0
G0 X317.4 Y313.4
G0 X317.3 Y313.6
G0 X317.2 Y313.7
G0 X317.2 Y315.1
G0 X317.2 Y315.2
G0 X317.2 Y315.3
G0 X317.4 Y315.8
G0 X317.9 Y316.1
G0 X318.0 Y316.1
G0 X318.4 Y316.1
G0 X319.4 Y316.4
G0 X320.6 Y316.8
G0 X321.6 Y317.3
G0 X322.6 Y317.9
G0 X323.6 Y318.5
G0 X324.5 Y319.2
G0 X325.5 Y319.9
G0 X326.2 Y320.4
G0 X326.5 Y320.5
G0 X326.6 Y320.5
G0 X326.9 Y320.8
G0 X327.1 Y321.1
G0 X327.1 Y321.2
G0 X327.3 Y321.5
G0 X327.8 Y322.5
G0 X328.7 Y323.6
G0 X329.8 Y324.7
G0 X331.0 Y325.7
G0 X332.4 Y326.6
G0 X333.7 Y327.5
G0 X335.0 Y328.4
G0 X336.0 Y329.2
G0 X336.3 Y329.4
G0 X336.4 Y329.5
G0 X336.8 Y329.8
G0 X337.4 Y329.9
G0 X337.5 Y329.9
G0 X337.9 Y329.9
G0 X339.0 Y330.1
G0 X340.1 Y330.7
G0 X340.9 Y331.5
G0 X341.5 Y332.2
G0 X341.6 Y332.4
G0 X341.7 Y332.6
G0 X342.1 Y333.1
G0 X342.7 Y333.6
G0 X343.2 Y333.9
G0 X343.8 Y334.1
G0 X344.4 Y334.0
G0 X347.0 Y332.3

M3 S165
G0 F2000
G0 X446.3 Y313.6
M3 S148
G0 F2000
G0 X445.8 Y314.3
G0 X443.1 Y317.6
G0 X440.4 Y320.8
G0 X439.8 Y321.5
G0 X439.5 Y321.9
G0 X438.6 Y323.0
G0 X437.6 Y324.7
G0 X436.9 Y326.4
G0 X436.6 Y327.8
G0 X438.1 Y328.4

M3 S165
G0 F2000
G0 X365.4 Y313.8
M3 S148
G0 F2000
G0 X365.5 Y313.8
G0 X366.0 Y313.8
G0 X366.2 Y313.8
G0 X366.2 Y313.8
G0 X366.4 Y312.9
G0 X366.4 Y312.8
G0 X366.3 Y312.8
G0 X366.1 Y312.7
G0 X365.4 Y313.8

M3 S165
G0 F2000
G0 X364.8 Y316.1
M3 S148
G0 F2000
G0 X364.9 Y316.0
G0 X365.6 Y315.1
G0 X366.1 Y314.1
G0 X366.2 Y313.8
G0 X366.1 Y313.8
G0 X365.6 Y313.6
G0 X365.1 Y313.6
G0 X365.0 Y313.6
G0 X364.8 Y313.6
G0 X364.3 Y313.9
G0 X363.9 Y314.3
G0 X364.8 Y316.1

M3 S165
G0 F2000
G0 X361.7 Y319.6
M3 S148
G0 F2000
G0 X362.0 Y319.4
G0 X362.8 Y318.9
G0 X363.5 Y318.0
G0 X364.1 Y317.0
G0 X364.5 Y316.3
G0 X364.6 Y316.1
G0 X363.1 Y315.2

M3 S165
G0 F2000
G0 X395.2 Y321.1
M3 S148
G0 F2000
G0 X395.4 Y321.1
G0 X395.7 Y321.0
G0 X396.1 Y320.9
G0 X396.5 Y320.7
G0 X396.6 Y320.4
G0 X396.6 Y320.3
G0 X396.6 Y320.2
G0 X396.5 Y320.0
G0 X396.3 Y319.7
G0 X395.9 Y319.5
G0 X395.5 Y319.4
G0 X395.4 Y319.5
G0 X395.3 Y319.5
G0 X395.0 Y319.6
G0 X394.9 Y319.8
G0 X395.2 Y321.1

M3 S165
G0 F2000
G0 X298.0 Y322.2
M3 S148
G0 F2000
G0 X298.1 Y322.9
G0 X298.1 Y324.7
G0 X298.0 Y327.1
G0 X298.1 Y329.5
G0 X298.3 Y331.3
G0 X298.4 Y331.9
G0 X298.4 Y332.4
G0 X298.6 Y334.1
G0 X298.6 Y336.3
G0 X298.5 Y338.5
G0 X298.6 Y340.1
G0 X298.6 Y340.6
G0 X298.7 Y340.8
G0 X298.8 Y341.4
G0 X299.1 Y342.0
G0 X299.6 Y342.5
G0 X300.1 Y342.8
G0 X300.3 Y342.9
G0 X300.3 Y341.8
G0 X300.4 Y329.9
G0 X300.4 Y328.7
G0 X300.4 Y328.3
G0 X300.1 Y326.4
G0 X299.7 Y324.4
G0 X298.0 Y322.2

M3 S165
G0 F2000
G0 X440.6 Y322.7
M3 S148
G0 F2000
G0 X440.3 Y323.0
G0 X439.4 Y324.2
G0 X438.4 Y325.7
G0 X437.6 Y327.4
G0 X437.1 Y328.6
G0 X437.0 Y329.0
G0 X437.0 Y329.4
G0 X437.2 Y330.4
G0 X437.4 Y331.7
G0 X437.4 Y333.1
G0 X437.3 Y334.1
G0 X439.2 Y338.1

M3 S165
G0 F2000
G0 X349.3 Y330.0
M3 S148
G0 F2000
G0 X349.7 Y329.8
G0 X350.7 Y329.0
G0 X352.0 Y327.8
G0 X353.2 Y326.6
G0 X354.2 Y325.7
G0 X354.5 Y325.4
G0 X354.6 Y325.4
G0 X354.9 Y325.2
G0 X355.1 Y324.9
G0 X355.1 Y324.8
G0 X355.1 Y324.7
G0 X355.3 Y324.3
G0 X355.5 Y324.0
G0 X355.9 Y323.9
G0 X356.2 Y323.9
G0 X356.2 Y323.9
G0 X356.7 Y323.8
G0 X358.0 Y323.1
G0 X359.5 Y322.1
G0 X360.7 Y320.9
G0 X361.5 Y319.9
G0 X361.7 Y319.6
G0 X361.8 Y319.5
G0 X362.1 Y319.1
G0 X362.3 Y318.5
G0 X362.3 Y317.9
G0 X362.4 Y317.3
G0 X362.6 Y316.7
G0 X363.0 Y316.2
G0 X363.6 Y315.8
G0 X364.3 Y315.5
G0 X364.6 Y315.5
G0 X364.6 Y315.4
G0 X366.0 Y311.1

M3 S165
G0 F2000
G0 X138.4 Y330.4
M3 S148
G0 F2000
G0 X138.3 Y330.6
G0 X138.1 Y331.1
G0 X138.0 Y331.7
G0 X138.0 Y332.2
G0 X138.2 Y332.6
G0 X138.4 Y333.0
G0 X138.8 Y333.4
G0 X139.2 Y333.7
G0 X139.6 Y333.9
G0 X139.7 Y334.0
G0 X139.8 Y334.1
G0 X140.4 Y334.2
G0 X141.0 Y334.1
G0 X141.1 Y334.1
G0 X141.2 Y334.0
G0 X141.5 Y333.8
G0 X141.6 Y333.4
G0 X141.5 Y333.1
G0 X141.3 Y332.9
G0 X138.4 Y330.4

M3 S165
G0 F2000
G0 X349.2 Y330.6
M3 S148
G0 F2000
G0 X349.8 Y330.5
G0 X351.6 Y330.1
G0 X353.7 Y329.3
G0 X355.3 Y328.1
G0 X356.4 Y326.8
G0 X356.6 Y326.4
G0 X356.7 Y326.2
G0 X357.2 Y325.5
G0 X357.9 Y324.7
G0 X358.8 Y324.0
G0 X359.7 Y323.2
G0 X360.6 Y322.6
G0 X361.6 Y321.9
G0 X362.5 Y321.2
G0 X363.2 Y320.6
G0 X363.4 Y320.4
G0 X363.7 Y320.2
G0 X364.4 Y319.4
G0 X365.0 Y318.4
G0 X365.2 Y317.3
G0 X364.9 Y316.4
G0 X364.8 Y316.1
G0 X364.7 Y316.1
G0 X364.4 Y315.9
G0 X364.3 Y315.9
G0 X364.1 Y315.9
G0 X363.6 Y316.0
G0 X362.9 Y316.3
G0 X362.4 Y316.6
G0 X362.0 Y317.1
G0 X361.6 Y317.5
G0 X361.1 Y317.9
G0 X360.6 Y318.3
G0 X360.2 Y318.6
G0 X360.1 Y318.6
G0 X359.8 Y319.0
G0 X358.1 Y321.0
G0 X356.1 Y322.9
G0 X355.6 Y323.2
G0 X355.4 Y323.3
G0 X354.9 Y323.5
G0 X354.2 Y323.7
G0 X353.5 Y324.0
G0 X353.0 Y324.3
G0 X352.9 Y324.5
G0 X352.8 Y324.6
G0 X352.4 Y325.1
G0 X351.7 Y325.8
G0 X351.0 Y326.4
G0 X350.4 Y327.0
G0 X349.7 Y327.6
G0 X349.2 Y330.6

M3 S165
G0 F2000
G0 X438.9 Y335.2
M3 S148
G0 F2000
G0 X439.0 Y334.8
G0 X438.9 Y333.5
G0 X438.7 Y331.8
G0 X438.4 Y330.1
G0 X438.1 Y328.8
G0 X438.1 Y328.4
G0 X438.0 Y328.4
G0 X436.8 Y328.2
G0 X436.7 Y328.2
G0 X436.5 Y329.0
G0 X436.2 Y329.1
G0 X435.6 Y329.6
G0 X435.0 Y330.2
G0 X434.9 Y331.0
G0 X434.9 Y331.4
G0 X435.0 Y331.6
G0 X435.2 Y331.9
G0 X435.5 Y332.8
G0 X435.7 Y334.0
G0 X435.8 Y335.2
G0 X435.6 Y336.4
G0 X435.4 Y337.6
G0 X435.2 Y338.7
G0 X435.1 Y339.9
G0 X435.0 Y340.8
G0 X435.0 Y341.1
G0 X435.0 Y341.8
G0 X435.0 Y343.8
G0 X435.0 Y346.4
G0 X434.8 Y349.1
G0 X434.5 Y351.0
G0 X434.4 Y351.7
G0 X434.4 Y352.1
G0 X434.3 Y353.1
G0 X434.0 Y354.6
G0 X433.7 Y356.0
G0 X433.4 Y357.4
G0 X433.1 Y358.8
G0 X432.9 Y360.3
G0 X432.9 Y361.7
G0 X433.0 Y362.8
G0 X433.1 Y363.2
G0 X433.2 Y363.2
G0 X433.6 Y363.5
G0 X434.2 Y363.6
G0 X434.3 Y363.6
G0 X434.6 Y363.6
G0 X435.4 Y363.5
G0 X436.2 Y363.1
G0 X438.0 Y359.5

M3 S165
G0 F2000
G0 X149.3 Y339.0
M3 S148
G0 F2000
G0 X149.2 Y339.0
G0 X148.7 Y339.1
G0 X148.3 Y339.4
G0 X148.1 Y339.8
G0 X148.1 Y340.1
G0 X148.1 Y340.2
G0 X148.1 Y340.2
G0 X148.1 Y340.4
G0 X148.3 Y340.7
G0 X148.5 Y340.9
G0 X148.8 Y340.9
G0 X148.9 Y340.9
G0 X149.0 Y340.9
G0 X149.3 Y340.9
G0 X149.6 Y340.7
G0 X149.7 Y340.5
G0 X149.8 Y340.3
G0 X149.3 Y339.0

M3 S165
G0 F2000
G0 X126.7 Y342.9
M3 S148
G0 F2000
G0 X126.4 Y342.2
G0 X125.0 Y338.4
G0 X123.3 Y334.7
G0 X122.9 Y334.0
G0 X122.8 Y334.3
G0 X122.8 Y335.2
G0 X122.9 Y336.4
G0 X126.7 Y342.9

M3 S165
G0 F2000
G0 X300.3 Y346.8
M3 S148
G0 F2000
G0 X300.2 Y346.8
G0 X299.9 Y346.8
G0 X299.6 Y346.8
G0 X299.3 Y347.0
G0 X299.2 Y347.2
G0 X299.2 Y347.3
G0 X299.1 Y347.8
G0 X298.7 Y349.2
G0 X298.4 Y351.2
G0 X298.3 Y353.1
G0 X298.6 Y354.6
G0 X298.8 Y355.1
G0 X298.9 Y355.3
G0 X298.9 Y356.2
G0 X298.7 Y357.1
G0 X298.6 Y357.2
G0 X298.6 Y357.4
G0 X298.8 Y358.1
G0 X299.4 Y358.5
G0 X299.5 Y358.6
G0 X299.7 Y358.4
G0 X300.0 Y357.8
G0 X300.3 Y346.8

M3 S165
G0 F2000
G0 X357.6 Y347.1
M3 S148
G0 F2000
G0 X357.6 Y347.1
G0 X357.4 Y347.2
G0 X357.3 Y347.4
G0 X357.3 Y347.4
G0 X357.3 Y347.5
G0 X357.4 Y347.7
G0 X357.5 Y347.9
G0 X357.6 Y347.9
G0 X357.6 Y347.9
G0 X357.9 Y347.9
G0 X358.1 Y347.8
G0 X357.6 Y347.1

M3 S165
G0 F2000
G0 X140.1 Y353.9
M3 S148
G0 F2000
G0 X139.9 Y353.8
G0 X139.5 Y353.4
G0 X139.2 Y353.1
G0 X139.1 Y353.0
G0 X139.0 Y353.0
G0 X138.5 Y352.8
G0 X137.8 Y352.6
G0 X137.1 Y352.7
G0 X136.6 Y352.9
G0 X136.5 Y353.1
G0 X136.4 Y353.1
G0 X136.3 Y353.4
G0 X136.3 Y353.8
G0 X136.4 Y353.8
G0 X136.4 Y353.9
G0 X136.8 Y354.2
G0 X137.4 Y354.3
G0 X140.1 Y353.9

M3 S165
G0 F2000
G0 X129.7 Y358.0
M3 S148
G0 F2000
G0 X129.9 Y357.7
G0 X130.5 Y356.7
G0 X131.1 Y355.3
G0 X131.4 Y354.0
G0 X131.4 Y352.6
G0 X131.2 Y351.3
G0 X130.8 Y350.0
G0 X130.0 Y348.7
G0 X129.3 Y347.7
G0 X129.7 Y358.0

M3 S165
G0 F2000
G0 X436.4 Y359.0
M3 S148
G0 F2000
G0 X436.3 Y359.2
G0 X436.0 Y360.0
G0 X435.7 Y361.1
G0 X435.2 Y362.1
G0 X434.7 Y362.9
G0 X434.4 Y363.1
G0 X434.5 Y363.2
G0 X435.6 Y364.6
G0 X435.6 Y364.8
G0 X435.6 Y364.9
G0 X435.4 Y365.1
G0 X435.1 Y365.3
G0 X433.6 Y366.4

M3 S165
G0 F2000
G0 X311.0 Y359.1
M3 S148
G0 F2000
G0 X311.0 Y359.1
G0 X310.8 Y358.9
G0 X310.8 Y358.9
G0 X310.8 Y358.9
G0 X310.6 Y358.7
G0 X310.4 Y358.4
G0 X310.2 Y358.1
G0 X310.0 Y357.9
G0 X309.7 Y357.6
G0 X309.4 Y357.5
G0 X309.0 Y357.5
G0 X308.6 Y357.5
G0 X308.5 Y357.6
G0 X308.3 Y357.6
G0 X307.7 Y358.0
G0 X307.6 Y358.6
G0 X307.8 Y359.1
G0 X308.1 Y359.6
G0 X308.2 Y359.7
G0 X308.4 Y360.0
G0 X308.8 Y361.1
G0 X309.0 Y362.5
G0 X309.1 Y363.9
G0 X309.4 Y365.0
G0 X311.0 Y359.1

M3 S165
G0 F2000
G0 X306.5 Y361.9
M3 S148
G0 F2000
G0 X306.6 Y361.7
G0 X306.7 Y361.0
G0 X306.7 Y360.0
G0 X306.6 Y359.1
G0 X306.5 Y358.4
G0 X306.4 Y358.1
G0 X306.4 Y358.0
G0 X306.4 Y357.5
G0 X306.5 Y356.9
G0 X306.9 Y356.4
G0 X307.6 Y356.0
G0 X307.8 Y355.9
G0 X308.0 Y355.9
G0 X308.4 Y355.6
G0 X308.6 Y355.1
G0 X308.4 Y354.6
G0 X308.1 Y354.2
G0 X308.0 Y354.1
G0 X307.8 Y354.2
G0 X307.3 Y354.4
G0 X306.6 Y354.5
G0 X305.9 Y354.5
G0 X305.3 Y354.3
G0 X304.8 Y354.1
G0 X304.2 Y353.8
G0 X303.6 Y353.6
G0 X303.2 Y353.4
G0 X303.1 Y353.4
G0 X302.9 Y353.5
G0 X302.4 Y353.9
G0 X302.1 Y354.4
G0 X302.3 Y354.8
G0 X302.5 Y355.1
G0 X302.6 Y355.2
G0 X302.9 Y355.5
G0 X303.6 Y356.4
G0 X304.0 Y357.6
G0 X303.8 Y358.9
G0 X303.3 Y359.8
G0 X303.1 Y360.1
G0 X306.5 Y361.9

M3 S165
G0 F2000
G0 X86.5 Y363.1
M3 S148
G0 F2000
G0 X86.6 Y363.3
G0 X86.8 Y363.7
G0 X86.9 Y364.3
G0 X86.8 Y364.8
G0 X86.6 Y365.2
G0 X86.2 Y365.6
G0 X85.7 Y366.0
G0 X85.1 Y366.3
G0 X84.7 Y366.5
G0 X78.3 Y371.8

M3 S165
G0 F2000
G0 X376.1 Y368.1
M3 S148
G0 F2000
G0 X376.1 Y368.1
G0 X376.1 Y368.6
G0 X376.0 Y368.6
G0 X376.0 Y368.7
G0 X376.1 Y369.0
G0 X376.3 Y369.2
G0 X376.4 Y369.2
G0 X376.4 Y369.3
G0 X376.7 Y369.2
G0 X376.9 Y369.1
G0 X377.0 Y369.0
G0 X377.0 Y369.0
G0 X376.1 Y368.1

M3 S165
G0 F2000
G0 X380.4 Y372.3
M3 S148
G0 F2000
G0 X380.6 Y372.4
G0 X381.0 Y372.4
G0 X381.5 Y372.4
G0 X382.0 Y372.2
G0 X382.4 Y372.1
G0 X382.4 Y372.0
G0 X382.6 Y371.9
G0 X382.8 Y371.6
G0 X382.9 Y371.2
G0 X382.8 Y370.9
G0 X382.6 Y370.6
G0 X382.4 Y370.5
G0 X382.4 Y370.4
G0 X381.9 Y370.3
G0 X381.4 Y370.4
G0 X381.1 Y370.7
G0 X380.8 Y370.9
G0 X380.4 Y372.3

M3 S165
G0 F2000
G0 X429.6 Y375.5
M3 S148
G0 F2000
G0 X429.5 Y375.5
G0 X429.2 Y375.6
G0 X428.9 Y375.9
G0 X428.6 Y376.1
G0 X428.3 Y376.3
G0 X428.2 Y376.4
G0 X428.3 Y376.5
G0 X428.9 Y377.5
G0 X428.9 Y377.6
G0 X429.1 Y377.5
G0 X429.7 Y377.3
G0 X430.3 Y377.1
G0 X430.9 Y377.2
G0 X431.6 Y377.4
G0 X432.1 Y377.6
G0 X432.7 Y377.9
G0 X433.2 Y378.2
G0 X433.7 Y378.3
G0 X433.6 Y376.9

M3 S165
G0 F2000
G0 X428.0 Y382.5
M3 S148
G0 F2000
G0 X428.0 Y382.3
G0 X427.9 Y381.5
G0 X427.9 Y380.5
G0 X427.7 Y379.4
G0 X427.3 Y378.6
G0 X427.0 Y378.4
G0 X426.9 Y378.4
G0 X426.3 Y378.6
G0 X425.7 Y378.9
G0 X425.3 Y379.2
G0 X425.0 Y379.6
G0 X424.8 Y380.1
G0 X424.8 Y380.5
G0 X424.8 Y381.0
G0 X424.9 Y381.4
G0 X424.9 Y381.6
G0 X425.1 Y381.6
G0 X427.2 Y382.6
G0 X427.4 Y382.7
G0 X427.4 Y382.7
G0 X428.0 Y382.5

M3 S165
G0 F2000
G0 X431.8 Y382.7
M3 S148
G0 F2000
G0 X431.8 Y382.6
G0 X431.4 Y382.3
G0 X431.0 Y382.1
G0 X430.9 Y382.0
G0 X430.8 Y382.0
G0 X429.7 Y381.8
G0 X429.6 Y381.8
G0 X429.5 Y381.8
G0 X428.9 Y381.8
G0 X428.8 Y381.8
G0 X428.7 Y381.8
G0 X428.1 Y381.7
G0 X428.0 Y381.6
G0 X427.9 Y381.6
G0 X427.2 Y381.4
G0 X427.2 Y381.4
G0 X427.1 Y381.3
G0 X426.6 Y381.0
G0 X425.9 Y380.8
G0 X425.2 Y380.7
G0 X424.6 Y380.8
G0 X424.4 Y380.9
G0 X423.8 Y381.4
G0 X422.0 Y383.0
G0 X420.1 Y385.4
G0 X418.5 Y387.9
G0 X417.4 Y389.8
G0 X417.0 Y390.4
G0 X416.9 Y390.5
G0 X416.8 Y390.9
G0 X415.8 Y392.9

M3 S165
G0 F2000
G0 X418.2 Y391.0
M3 S148
G0 F2000
G0 X418.1 Y391.0
G0 X417.6 Y391.0
G0 X417.2 Y391.0
G0 X416.9 Y391.0
G0 X416.7 Y391.1
G0 X416.6 Y391.2
G0 X417.8 Y392.2

M3 S165
G0 F2000
G0 X416.7 Y392.7
M3 S148
G0 F2000
G0 X416.5 Y392.7
G0 X416.0 Y392.8
G0 X415.4 Y393.1
G0 X414.9 Y393.5
G0 X414.5 Y393.8
G0 X414.4 Y393.9
G0 X414.2 Y393.9
G0 X413.7 Y394.0
G0 X411.7 Y395.8

M3 S165
G0 F2000
G0 X413.0 Y395.6
M3 S148
G0 F2000
G0 X412.7 Y395.6
G0 X412.1 Y396.0
G0 X411.3 Y396.5
G0 X410.7 Y397.1
G0 X410.2 Y397.7
G0 X409.8 Y398.4
G0 X409.3 Y399.1
G0 X408.9 Y399.8
G0 X408.6 Y400.3
G0 X408.5 Y400.4
G0 X408.3 Y400.7
G0 X407.6 Y401.5
G0 X406.6 Y402.2
G0 X405.3 Y402.7
G0 X404.0 Y402.8
G0 X397.5 Y403.9

M3 S165
G0 F2000
G0 X409.5 Y399.5
M3 S148
G0 F2000
G0 X409.2 Y399.8
G0 X408.2 Y400.6
G0 X406.8 Y401.6
G0 X405.3 Y402.4
G0 X403.6 Y403.1
G0 X401.9 Y403.7
G0 X395.3 Y405.4

M3 S165
G0 F2000
G0 X124.4 Y402.2
M3 S148
G0 F2000
G0 X124.3 Y402.1
G0 X124.0 Y401.9
G0 X123.7 Y401.4
G0 X123.3 Y401.1
G0 X122.9 Y400.8
G0 X122.7 Y400.8
G0 X122.6 Y400.9
G0 X122.2 Y401.2
G0 X122.1 Y401.7
G0 X124.4 Y402.2

M3 S165
G0 F2000
G0 X88.2 Y402.8
M3 S148
G0 F2000
G0 X88.5 Y402.8
G0 X89.5 Y402.8
G0 X90.7 Y402.7
G0 X91.9 Y402.6
G0 X92.8 Y402.3
G0 X93.0 Y402.2
G0 X92.9 Y402.1
G0 X92.1 Y401.1
G0 X91.3 Y400.3
G0 X91.1 Y400.1
G0 X90.6 Y399.9
G0 X89.4 Y398.8
G0 X88.1 Y397.3
G0 X87.0 Y395.7
G0 X86.5 Y394.4
G0 X86.3 Y393.9
G0 X86.3 Y393.7
G0 X85.8 Y392.9
G0 X85.0 Y392.1
G0 X84.8 Y392.0
G0 X84.5 Y391.8
G0 X83.5 Y391.1
G0 X82.4 Y390.2
G0 X81.5 Y389.2
G0 X80.7 Y388.1
G0 X80.0 Y387.0
G0 X79.6 Y385.8
G0 X79.2 Y384.6
G0 X79.0 Y383.6
G0 X79.0 Y383.3
G0 X79.0 Y382.9
G0 X78.7 Y381.5
G0 X78.3 Y379.8
G0 X78.0 Y378.0
G0 X78.1 Y376.6
G0 X78.2 Y376.1
G0 X78.2 Y375.9
G0 X78.5 Y374.9
G0 X79.0 Y373.8
G0 X79.7 Y372.8
G0 X80.5 Y371.8
G0 X81.4 Y370.8
G0 X82.5 Y369.9
G0 X83.6 Y369.1
G0 X84.5 Y368.4
G0 X84.8 Y368.2
G0 X84.9 Y368.1
G0 X85.5 Y367.9
G0 X86.2 Y367.8
G0 X87.0 Y367.8
G0 X87.8 Y367.9
G0 X88.0 Y367.9
G0 X88.0 Y367.7
G0 X88.1 Y367.1
G0 X88.5 Y366.3
G0 X88.9 Y365.6
G0 X89.4 Y365.1
G0 X89.5 Y364.9
G0 X89.6 Y364.8
G0 X90.0 Y364.3
G0 X90.2 Y363.8
G0 X90.4 Y363.4
G0 X90.3 Y363.0
G0 X90.0 Y362.6
G0 X89.6 Y362.3
G0 X89.0 Y362.0
G0 X88.3 Y361.8
G0 X82.3 Y357.6

M3 S165
G0 F2000
G0 X188.7 Y402.8
M3 S148
G0 F2000
G0 X188.8 Y403.4
G0 X188.8 Y405.3
G0 X188.2 Y407.8
G0 X187.5 Y410.2
G0 X186.9 Y412.0
G0 X186.8 Y412.6
G0 X186.7 Y413.2
G0 X186.0 Y415.8
G0 X185.5 Y418.4
G0 X185.5 Y419.0
G0 X185.4 Y419.7
G0 X185.1 Y422.0
G0 X184.8 Y425.0
G0 X184.6 Y428.1
G0 X184.8 Y430.4
G0 X185.0 Y431.1
G0 X185.0 Y431.4
G0 X185.0 Y432.1
G0 X184.9 Y433.1
G0 X184.7 Y434.0
G0 X184.6 Y434.7
G0 X184.6 Y434.9
G0 X184.5 Y435.7
G0 X184.3 Y443.1
G0 X184.2 Y443.8
G0 X184.2 Y444.1
G0 X184.1 Y445.4
G0 X184.1 Y446.6
G0 X184.1 Y446.9
G0 X184.2 Y447.6
G0 X184.0 Y449.8
G0 X183.5 Y452.6
G0 X182.7 Y455.4
G0 X182.0 Y457.5
G0 X181.8 Y458.1
G0 X181.9 Y458.2
G0 X182.5 Y458.5
G0 X183.2 Y458.7
G0 X184.0 Y458.8
G0 X184.6 Y458.8
G0 X184.8 Y458.7
G0 X184.8 Y458.0
G0 X185.0 Y454.5
G0 X185.5 Y451.1
G0 X185.7 Y450.4
G0 X185.9 Y449.3
G0 X186.7 Y443.8
G0 X187.1 Y438.2
G0 X187.1 Y437.1
G0 X187.1 Y436.1
G0 X187.6 Y430.9
G0 X188.3 Y425.7
G0 X188.4 Y424.6
G0 X188.5 Y424.1
G0 X188.8 Y421.6
G0 X189.0 Y419.0
G0 X189.1 Y418.5
G0 X189.2 Y417.5
G0 X189.8 Y412.3
G0 X190.7 Y407.1
G0 X190.9 Y406.1
G0 X190.9 Y406.0
G0 X191.0 Y405.6
G0 X191.0 Y405.1
G0 X188.7 Y402.8

M3 S165
G0 F2000
G0 X395.2 Y404.4
M3 S148
G0 F2000
G0 X395.3 Y404.4
G0 X396.7 Y403.9
G0 X396.8 Y403.9
G0 X396.7 Y403.8
G0 X396.4 Y403.6
G0 X396.1 Y403.5
G0 X395.2 Y404.4

M3 S165
G0 F2000
G0 X398.4 Y404.6
M3 S148
G0 F2000
G0 X398.5 Y404.5
G0 X398.5 Y404.2
G0 X398.4 Y404.0
G0 X398.1 Y403.8
G0 X397.6 Y403.8
G0 X397.5 Y403.9
G0 X397.4 Y403.9
G0 X396.9 Y403.9
G0 X396.8 Y403.9
G0 X396.6 Y403.9
G0 X395.9 Y404.0
G0 X395.3 Y404.4
G0 X395.2 Y404.4
G0 X394.4 Y405.4

M3 S165
G0 F2000
G0 X370.7 Y411.7
M3 S148
G0 F2000
G0 X370.3 Y411.7
G0 X369.0 Y412.0
G0 X367.5 Y412.6
G0 X366.0 Y413.2
G0 X365.0 Y413.8
G0 X364.7 Y414.1
G0 X364.5 Y414.1
G0 X363.1 Y415.0
G0 X362.9 Y415.1
G0 X363.2 Y415.1
G0 X364.1 Y415.2
G0 X365.3 Y415.1
G0 X366.4 Y414.9
G0 X370.7 Y411.7

M3 S165
G0 F2000
G0 X349.4 Y411.8
M3 S148
G0 F2000
G0 X349.7 Y411.4
G0 X352.9 Y407.6
G0 X353.2 Y407.2
G0 X353.2 Y407.2
G0 X353.4 Y406.2
G0 X353.4 Y406.2
G0 X353.4 Y405.9
G0 X353.6 Y405.2
G0 X353.7 Y404.4
G0 X353.7 Y403.9
G0 X353.5 Y403.5
G0 X353.0 Y403.3
G0 X352.3 Y403.3
G0 X351.3 Y403.3
G0 X350.2 Y403.3
G0 X349.9 Y403.4
G0 X349.7 Y403.4
G0 X349.2 Y403.3
G0 X348.6 Y403.2
G0 X348.0 Y403.1
G0 X347.5 Y403.2
G0 X347.3 Y403.3
G0 X347.0 Y403.6
